Yushengdong20/tree/config/motion/gait_arm/smplx.csv
root_x,root_y,root_z,root_qx,root_qy,root_qz,root_qw,LB_wheel_yaw_joint,LB_wheel_pitch_joint,RB_wheel_yaw_joint,RB_wheel_pitch_joint,knee_joint,leg_joint,waist_pitch_joint,waist_yaw_joint,zarm_l1_joint,zarm_l2_joint,zarm_l3_joint,zarm_l4_joint,zarm_l5_joint,zarm_l6_joint,zarm_l7_joint,zarm_r1_joint,zarm_r2_joint,zarm_r3_joint,zarm_r4_joint,zarm_r5_joint,zarm_r6_joint,zarm_r7_joint,zhead_1_joint,zhead_2_joint
-2.023026943206787109e+00,-2.191179275512695312e+00,5.594515800476074219e-01,0.000000000000000000e+00,0.000000000000000000e+00,0.000000000000000000e+00,0.000000000000000000e+00,0.000000000000000000e+00,0.000000000000000000e+00,0.000000000000000000e+00,0.000000000000000000e+00,1.068044081330299377e-02,-2.195682004094123840e-02,-2.195682004094123840e-02,2.217941284179687500e-01,-5.370469018816947937e-02,9.923911094665527344e-02,1.196326594799757004e-02,-1.123984083533287048e-01,2.327938750386238098e-02,1.040560845285654068e-02,-6.664753705263137817e-02,-6.494500488042831421e-02,-7.018034905195236206e-02,1.649187691509723663e-02,-1.155512407422065735e-01,-1.919207349419593811e-02,-1.050457544624805450e-02,-5.960392206907272339e-02,3.360010311007499695e-02,3.914427012205123901e-02
-2.042495489120483398e+00,-2.218156337738037109e+00,6.586426496505737305e-01,0.000000000000000000e+00,0.000000000000000000e+00,0.000000000000000000e+00,0.000000000000000000e+00,0.000000000000000000e+00,0.000000000000000000e+00,0.000000000000000000e+00,0.000000000000000000e+00,5.035811290144920349e-02,-4.972883216325385547e-10,1.772085204720497131e-02,1.867065131664276123e-01,-9.240523725748062134e-02,1.473976969718933105e-01,-4.658457264304161072e-02,-2.403994649648666382e-01,2.978509850800037384e-02,-2.160381525754928589e-02,-1.278384625911712646e-01,-8.056782186031341553e-02,-1.349569857120513916e-01,-1.057579368352890015e-02,-2.094391435384750366e-01,-6.703288853168487549e-02,-9.919808246195316315e-03,-9.562931209802627563e-02,2.094047702848911285e-02,5.724597722291946411e-02
-2.041040420532226562e+00,-2.215645551681518555e+00,6.668431162834167480e-01,0.000000000000000000e+00,0.000000000000000000e+00,0.000000000000000000e+00,0.000000000000000000e+00,0.000000000000000000e+00,0.000000000000000000e+00,0.000000000000000000e+00,0.000000000000000000e+00,5.250526592135429382e-02,-2.486441608162692773e-11,1.986800692975521088e-02,1.802229434251785278e-01,-9.397868067026138306e-02,1.496519595384597778e-01,-5.460959300398826599e-02,-2.502692043781280518e-01,2.980447560548782349e-02,-2.649795077741146088e-02,-1.319396644830703735e-01,-8.153314143419265747e-02,-1.381244510412216187e-01,-1.243331469595432281e-02,-2.172457128763198853e-01,-7.151563465595245361e-02,-8.203603327274322510e-03,-9.760034084320068359e-02,1.904951594769954681e-02,5.887762084603309631e-02
-2.040281295776367188e+00,-2.214805364608764648e+00,6.909863948822021484e-01,0.000000000000000000e+00,0.000000000000000000e+00,0.000000000000000000e+00,0.000000000000000000e+00,0.000000000000000000e+00,0.000000000000000000e+00,0.000000000000000000e+00,0.000000000000000000e+00,5.871757492423057556e-02,-3.108427957306675316e-15,2.608031593263149261e-02,1.629231274127960205e-01,-9.748803824186325073e-02,1.569040566682815552e-01,-7.732550799846649170e-02,-2.773006260395050049e-01,3.104799985885620117e-02,-3.943368792533874512e-02,-1.425588130950927734e-01,-8.243491500616073608e-02,-1.537078320980072021e-01,-1.240488886833190918e-02,-2.389538437128067017e-01,-7.954287528991699219e-02,-8.512182161211967468e-03,-1.023334488272666931e-01,1.139915082603693008e-02,6.452924758195877075e-02
-2.040498971939086914e+00,-2.214754343032836914e+00,6.977937221527099609e-01,0.000000000000000000e+00,0.000000000000000000e+00,0.000000000000000000e+00,0.000000000000000000e+00,0.000000000000000000e+00,0.000000000000000000e+00,0.000000000000000000e+00,0.000000000000000000e+00,6.084145605564117432e-02,-1.552543629681352177e-16,2.820419520139694214e-02,1.570196449756622314e-01,-9.831735491752624512e-02,1.585723161697387695e-01,-8.353876322507858276e-02,-2.854126393795013428e-01,3.217491880059242249e-02,-4.397943243384361267e-02,-1.459712833166122437e-01,-8.209635317325592041e-02,-1.566700190305709839e-01,-1.319966465234756470e-02,-2.444698512554168701e-01,-8.267521113157272339e-02,-7.559729740023612976e-03,-1.030517518520355225e-01,8.943893015384674072e-03,6.525344401597976685e-02
-2.043383598327636719e+00,-2.218518257141113281e+00,7.125049829483032227e-01,0.000000000000000000e+00,0.000000000000000000e+00,0.000000000000000000e+00,0.000000000000000000e+00,0.000000000000000000e+00,0.000000000000000000e+00,0.000000000000000000e+00,0.000000000000000000e+00,6.591036170721054077e-02,4.404571325722361763e-20,3.327309712767601013e-02,1.412604749202728271e-01,-9.994500875473022461e-02,1.638973206281661987e-01,-9.791570156812667847e-02,-3.063763976097106934e-01,3.508737683296203613e-02,-5.541488528251647949e-02,-1.527980118989944458e-01,-8.072602003812789917e-02,-1.639586538076400757e-01,-1.619438268244266510e-02,-2.593376934528350830e-01,-9.102006256580352783e-02,-4.839269444346427917e-03,-1.041212901473045349e-01,3.120042383670806885e-03,6.065107509493827820e-02
-2.043304204940795898e+00,-2.219090700149536133e+00,7.176482677459716797e-01,0.000000000000000000e+00,0.000000000000000000e+00,0.000000000000000000e+00,0.000000000000000000e+00,0.000000000000000000e+00,0.000000000000000000e+00,0.000000000000000000e+00,0.000000000000000000e+00,6.971710175275802612e-02,4.235164736271501695e-19,3.707984089851379395e-02,1.274543255567550659e-01,-1.005310192704200745e-01,1.712393462657928467e-01,-1.166308969259262085e-01,-3.211559951305389404e-01,3.032273612916469574e-02,-6.004268676042556763e-02,-1.569719314575195312e-01,-8.064743131399154663e-02,-1.668278723955154419e-01,-1.501643005758523941e-02,-2.695273458957672119e-01,-9.499461203813552856e-02,-1.912567415274679661e-03,-1.047430261969566345e-01,2.844514674507081509e-04,6.003280729055404663e-02
-2.044316530227661133e+00,-2.219559907913208008e+00,7.312792539596557617e-01,0.000000000000000000e+00,0.000000000000000000e+00,0.000000000000000000e+00,0.000000000000000000e+00,0.000000000000000000e+00,0.000000000000000000e+00,0.000000000000000000e+00,0.000000000000000000e+00,7.016199827194213867e-02,-1.485785196564393118e-05,3.752474114298820496e-02,1.242351904511451721e-01,-1.035299897193908691e-01,1.726334095001220703e-01,-1.161501258611679077e-01,-3.360626399517059326e-01,3.264355286955833435e-02,-6.123689562082290649e-02,-1.637248843908309937e-01,-8.086757361888885498e-02,-1.669876575469970703e-01,-2.102438919246196747e-02,-2.786868214607238770e-01,-1.024803295731544495e-01,1.968967495486140251e-03,-1.056297793984413147e-01,-1.701239612884819508e-03,5.788690969347953796e-02
-2.044708251953125000e+00,-2.219590425491333008e+00,7.363870739936828613e-01,0.000000000000000000e+00,0.000000000000000000e+00,0.000000000000000000e+00,0.000000000000000000e+00,0.000000000000000000e+00,0.000000000000000000e+00,0.000000000000000000e+00,0.000000000000000000e+00,7.104568928480148315e-02,-7.428926096508803312e-07,3.840843215584754944e-02,1.211545839905738831e-01,-1.036209389567375183e-01,1.747522652149200439e-01,-1.185943037271499634e-01,-3.424541652202606201e-01,3.150612488389015198e-02,-6.153237074613571167e-02,-1.661772727966308594e-01,-8.085461705923080444e-02,-1.711153686046600342e-01,-2.139236219227313995e-02,-2.834174036979675293e-01,-1.029216572642326355e-01,1.884280936792492867e-03,-1.067500412464141846e-01,-3.152675461024045944e-03,5.619742348790168762e-02
-2.044719219207763672e+00,-2.219903945922851562e+00,7.538547515869140625e-01,0.000000000000000000e+00,0.000000000000000000e+00,0.000000000000000000e+00,0.000000000000000000e+00,0.000000000000000000e+00,0.000000000000000000e+00,0.000000000000000000e+00,0.000000000000000000e+00,7.468122243881225586e-02,-1.857231590740582305e-09,4.204396530985832214e-02,1.227482333779335022e-01,-1.051635965704917908e-01,1.751553565263748169e-01,-1.217947751283645630e-01,-3.549469411373138428e-01,3.038204647600650787e-02,-6.446405500173568726e-02,-1.705693602561950684e-01,-7.458736002445220947e-02,-1.828225553035736084e-01,-8.280372247099876404e-03,-2.881001830101013184e-01,-9.218013286590576172e-02,5.475281272083520889e-03,-1.047316193580627441e-01,-8.570948615670204163e-03,5.355630442500114441e-02
-2.044985055923461914e+00,-2.219713926315307617e+00,7.631435990333557129e-01,0.000000000000000000e+00,0.000000000000000000e+00,0.000000000000000000e+00,0.000000000000000000e+00,0.000000000000000000e+00,0.000000000000000000e+00,0.000000000000000000e+00,0.000000000000000000e+00,7.557947933673858643e-02,-4.643078890115281965e-12,4.294221475720405579e-02,1.176339834928512573e-01,-1.050210371613502502e-01,1.758469790220260620e-01,-1.249628067016601562e-01,-3.653217852115631104e-01,2.874340303242206573e-02,-6.718368083238601685e-02,-1.736785769462585449e-01,-7.148405909538269043e-02,-1.938077956438064575e-01,-6.296279607340693474e-04,-2.943120598793029785e-01,-8.354982733726501465e-02,7.650475949048995972e-03,-1.042870804667472839e-01,-1.300478447228670120e-02,4.914079606533050537e-02
-2.045199394226074219e+00,-2.219802141189575195e+00,7.675009369850158691e-01,0.000000000000000000e+00,0.000000000000000000e+00,0.000000000000000000e+00,0.000000000000000000e+00,0.000000000000000000e+00,0.000000000000000000e+00,0.000000000000000000e+00,0.000000000000000000e+00,7.648321241140365601e-02,-2.321539770318292728e-13,4.384595155715942383e-02,1.153592392802238464e-01,-1.043514311313629150e-01,1.762984395027160645e-01,-1.259075254201889038e-01,-3.692668080329895020e-01,2.816266193985939026e-02,-6.825821846723556519e-02,-1.745262891054153442e-01,-7.065087556838989258e-02,-1.981686502695083618e-01,2.018469385802745819e-03,-2.975296378135681152e-01,-7.997098565101623535e-02,8.846212178468704224e-03,-1.041517779231071472e-01,-1.435538101941347122e-02,4.760153964161872864e-02
-2.045581817626953125e+00,-2.220070362091064453e+00,7.703261375427246094e-01,0.000000000000000000e+00,0.000000000000000000e+00,0.000000000000000000e+00,0.000000000000000000e+00,0.000000000000000000e+00,0.000000000000000000e+00,0.000000000000000000e+00,0.000000000000000000e+00,7.736410200595855713e-02,-1.160774628543650988e-14,4.472683742642402649e-02,1.119608208537101746e-01,-1.037941575050354004e-01,1.768901050090789795e-01,-1.268054991960525513e-01,-3.730438053607940674e-01,2.757877670228481293e-02,-6.929198652505874634e-02,-1.753305643796920776e-01,-7.006252557039260864e-02,-2.019765228033065796e-01,5.079311318695545197e-03,-3.006262481212615967e-01,-7.620176672935485840e-02,1.031358912587165833e-02,-1.039569377899169922e-01,-1.748594082891941071e-02,4.665292426943778992e-02
-2.045471429824829102e+00,-2.219762325286865234e+00,7.761896848678588867e-01,0.000000000000000000e+00,0.000000000000000000e+00,0.000000000000000000e+00,0.000000000000000000e+00,0.000000000000000000e+00,0.000000000000000000e+00,0.000000000000000000e+00,0.000000000000000000e+00,7.704068720340728760e-02,-3.234149771742522717e-04,4.440342262387275696e-02,1.055458933115005493e-01,-1.016568392515182495e-01,1.778125464916229248e-01,-1.275779604911804199e-01,-3.792699575424194336e-01,2.679506130516529083e-02,-7.118286192417144775e-02,-1.762872934341430664e-01,-6.967118382453918457e-02,-2.070261090993881226e-01,8.049060590565204620e-03,-3.067074716091156006e-01,-7.087131589651107788e-02,1.411075145006179810e-02,-1.037843301892280579e-01,-2.247525565326213837e-02,4.221149533987045288e-02
-2.043723583221435547e+00,-2.217023134231567383e+00,7.818033695220947266e-01,0.000000000000000000e+00,0.000000000000000000e+00,0.000000000000000000e+00,0.000000000000000000e+00,0.000000000000000000e+00,0.000000000000000000e+00,0.000000000000000000e+00,0.000000000000000000e+00,7.525677233934402466e-02,-2.107328735291957855e-03,4.261951148509979248e-02,9.007474035024642944e-02,-9.628903120756149292e-02,1.807468831539154053e-01,-1.238500997424125671e-01,-3.860143423080444336e-01,3.138981759548187256e-02,-7.079926133155822754e-02,-1.776462346315383911e-01,-7.416752725839614868e-02,-2.013249397277832031e-01,-1.037939079105854034e-02,-3.160947561264038086e-01,-8.381802588701248169e-02,1.634862460196018219e-02,-1.043356731534004211e-01,-2.731756120920181274e-02,3.824292123317718506e-02
-2.045214176177978516e+00,-2.218563079833984375e+00,7.863786816596984863e-01,0.000000000000000000e+00,0.000000000000000000e+00,0.000000000000000000e+00,0.000000000000000000e+00,0.000000000000000000e+00,0.000000000000000000e+00,0.000000000000000000e+00,0.000000000000000000e+00,7.585449516773223877e-02,-1.509603695012629032e-03,4.321723431348800659e-02,7.733502238988876343e-02,-9.120966494083404541e-02,1.851433962583541870e-01,-1.209985315799713135e-01,-3.925417363643646240e-01,3.500511869788169861e-02,-6.957080960273742676e-02,-1.792932450771331787e-01,-7.950343191623687744e-02,-1.951901018619537354e-01,-3.059829771518707275e-02,-3.263210058212280273e-01,-9.931562840938568115e-02,1.666129007935523987e-02,-1.082830205559730530e-01,-2.877141349017620087e-02,3.522986546158790588e-02
-2.045319557189941406e+00,-2.218686103820800781e+00,7.904543280601501465e-01,0.000000000000000000e+00,0.000000000000000000e+00,0.000000000000000000e+00,0.000000000000000000e+00,0.000000000000000000e+00,0.000000000000000000e+00,0.000000000000000000e+00,0.000000000000000000e+00,7.692876458168029785e-02,-4.353310505393892527e-04,4.429150745272636414e-02,7.610508799552917480e-02,-9.001214802265167236e-02,1.863071322441101074e-01,-1.196453794836997986e-01,-3.949038386344909668e-01,3.675518929958343506e-02,-6.910148262977600098e-02,-1.799428164958953857e-01,-7.951428741216659546e-02,-1.918541938066482544e-01,-3.469971194863319397e-02,-3.281366527080535889e-01,-1.039678007364273071e-01,1.837355829775333405e-02,-1.083172112703323364e-01,-2.890662476420402527e-02,3.439080715179443359e-02
-2.046283245086669922e+00,-2.219198465347290039e+00,8.018444180488586426e-01,0.000000000000000000e+00,0.000000000000000000e+00,0.000000000000000000e+00,0.000000000000000000e+00,0.000000000000000000e+00,0.000000000000000000e+00,0.000000000000000000e+00,0.000000000000000000e+00,7.895269244909286499e-02,-1.088327621800999623e-06,4.631543532013893127e-02,7.702702283859252930e-02,-8.831276744604110718e-02,1.888000667095184326e-01,-1.181989461183547974e-01,-3.994625508785247803e-01,3.941318392753601074e-02,-6.807368248701095581e-02,-1.810057759284973145e-01,-8.011982589960098267e-02,-1.876165121793746948e-01,-4.238202422857284546e-02,-3.320178687572479248e-01,-1.121741011738777161e-01,2.052983827888965607e-02,-1.083709970116615295e-01,-2.268408983945846558e-02,3.510504961013793945e-02
-2.046568155288696289e+00,-2.219455480575561523e+00,8.142093420028686523e-01,0.000000000000000000e+00,0.000000000000000000e+00,0.000000000000000000e+00,0.000000000000000000e+00,0.000000000000000000e+00,0.000000000000000000e+00,0.000000000000000000e+00,0.000000000000000000e+00,8.075334876775741577e-02,-2.720818903512167708e-09,4.811608418822288513e-02,8.002743870019912720e-02,-8.723470568656921387e-02,1.910282522439956665e-01,-1.193123012781143188e-01,-4.045163989067077637e-01,4.016936570405960083e-02,-6.736420094966888428e-02,-1.818828135728836060e-01,-8.178374171257019043e-02,-1.873727142810821533e-01,-5.094544962048530579e-02,-3.368865251541137695e-01,-1.192199662327766418e-01,2.030461467802524567e-02,-1.092755198478698730e-01,-6.485259160399436951e-03,3.850740939378738403e-02
-2.046946525573730469e+00,-2.220174551010131836e+00,8.219376802444458008e-01,0.000000000000000000e+00,0.000000000000000000e+00,0.000000000000000000e+00,0.000000000000000000e+00,0.000000000000000000e+00,0.000000000000000000e+00,0.000000000000000000e+00,0.000000000000000000e+00,8.213879168033599854e-02,-6.802047640419583985e-12,4.950153082609176636e-02,7.989010959863662720e-02,-8.586807548999786377e-02,1.935906410217285156e-01,-1.216022446751594543e-01,-4.091979563236236572e-01,4.064712673425674438e-02,-6.681361049413681030e-02,-1.824631094932556152e-01,-8.304930478334426880e-02,-1.885881870985031128e-01,-5.569902807474136353e-02,-3.421006798744201660e-01,-1.233068406581878662e-01,1.993320696055889130e-02,-1.100079640746116638e-01,8.117970079183578491e-03,4.162539541721343994e-02
-2.047215461730957031e+00,-2.220675706863403320e+00,8.282673358917236328e-01,0.000000000000000000e+00,0.000000000000000000e+00,0.000000000000000000e+00,0.000000000000000000e+00,0.000000000000000000e+00,0.000000000000000000e+00,0.000000000000000000e+00,0.000000000000000000e+00,8.279175311326980591e-02,-1.700513170489921511e-14,5.015449598431587219e-02,7.865200191736221313e-02,-8.415547013282775879e-02,1.966621279716491699e-01,-1.246301680803298950e-01,-4.137434065341949463e-01,4.099645465612411499e-02,-6.566861271858215332e-02,-1.829520910978317261e-01,-8.356622606515884399e-02,-1.904481798410415649e-01,-5.917607620358467102e-02,-3.467030525207519531e-01,-1.266066730022430420e-01,1.865841262042522430e-02,-1.101922541856765747e-01,2.167736180126667023e-02,4.390593245625495911e-02
-2.047563314437866211e+00,-2.220914602279663086e+00,8.292540907859802246e-01,0.000000000000000000e+00,0.000000000000000000e+00,0.000000000000000000e+00,0.000000000000000000e+00,0.000000000000000000e+00,0.000000000000000000e+00,0.000000000000000000e+00,0.000000000000000000e+00,8.388154208660125732e-02,-8.507598922222192606e-16,5.124428123235702515e-02,7.641915231943130493e-02,-8.314325660467147827e-02,1.975685805082321167e-01,-1.258141398429870605e-01,-4.156319797039031982e-01,4.149289056658744812e-02,-6.573612987995147705e-02,-1.829755753278732300e-01,-8.314387500286102295e-02,-1.884452253580093384e-01,-6.239841878414154053e-02,-3.473401367664337158e-01,-1.298178285360336304e-01,1.974657364189624786e-02,-1.091347262263298035e-01,2.830302156507968903e-02,4.495978727936744690e-02
-2.047986268997192383e+00,-2.221068143844604492e+00,8.313462734222412109e-01,0.000000000000000000e+00,0.000000000000000000e+00,0.000000000000000000e+00,0.000000000000000000e+00,0.000000000000000000e+00,0.000000000000000000e+00,0.000000000000000000e+00,0.000000000000000000e+00,8.461678028106689453e-02,-4.267351988267165108e-17,5.197951942682266235e-02,7.531590759754180908e-02,-8.193814009428024292e-02,1.984156370162963867e-01,-1.264107227325439453e-01,-4.172322750091552734e-01,4.220876842737197876e-02,-6.586349010467529297e-02,-1.828795224428176880e-01,-8.297858387231826782e-02,-1.875361204147338867e-01,-6.450112164020538330e-02,-3.484307527542114258e-01,-1.319513916969299316e-01,2.057859674096107483e-02,-1.082711517810821533e-01,3.472417220473289490e-02,4.581920430064201355e-02
-2.048147916793823242e+00,-2.221158742904663086e+00,8.338793516159057617e-01,0.000000000000000000e+00,0.000000000000000000e+00,0.000000000000000000e+00,0.000000000000000000e+00,0.000000000000000000e+00,0.000000000000000000e+00,0.000000000000000000e+00,0.000000000000000000e+00,8.519071340560913086e-02,-2.059984127722458425e-18,5.255345255136489868e-02,7.456582784652709961e-02,-8.077900111675262451e-02,1.992397159337997437e-01,-1.264881193637847900e-01,-4.186299741268157959e-01,4.316485673189163208e-02,-6.577177345752716064e-02,-1.828456223011016846e-01,-8.261544257402420044e-02,-1.862774938344955444e-01,-6.630388647317886353e-02,-3.494865000247955322e-01,-1.339919716119766235e-01,2.138516493141651154e-02,-1.074765473604202271e-01,4.013720899820327759e-02,4.642280563712120056e-02
-2.048178672790527344e+00,-2.221348285675048828e+00,8.364614248275756836e-01,0.000000000000000000e+00,0.000000000000000000e+00,0.000000000000000000e+00,0.000000000000000000e+00,0.000000000000000000e+00,0.000000000000000000e+00,0.000000000000000000e+00,0.000000000000000000e+00,8.586093783378601074e-02,-1.524659305057740610e-19,5.322367697954177856e-02,7.369397580623626709e-02,-7.941665500402450562e-02,2.003056854009628296e-01,-1.267534345388412476e-01,-4.196820259094238281e-01,4.378699883818626404e-02,-6.561081111431121826e-02,-1.825543940067291260e-01,-8.211530745029449463e-02,-1.862860769033432007e-01,-6.742426007986068726e-02,-3.507214188575744629e-01,-1.351867467164993286e-01,2.160144969820976257e-02,-1.068517193198204041e-01,4.503252729773521423e-02,4.697176441550254822e-02
-2.047100305557250977e+00,-2.220434188842773438e+00,8.395373225212097168e-01,0.000000000000000000e+00,0.000000000000000000e+00,0.000000000000000000e+00,0.000000000000000000e+00,0.000000000000000000e+00,0.000000000000000000e+00,0.000000000000000000e+00,0.000000000000000000e+00,8.635593950748443604e-02,-1.033380195650246414e-19,5.371867865324020386e-02,7.240851223468780518e-02,-7.777298986911773682e-02,2.018620818853378296e-01,-1.273635327816009521e-01,-4.204189479351043701e-01,4.403876140713691711e-02,-6.529141217470169067e-02,-1.820346266031265259e-01,-8.132963627576828003e-02,-1.865230947732925415e-01,-6.849649548530578613e-02,-3.517993986606597900e-01,-1.360518485307693481e-01,2.154015749692916870e-02,-1.060974821448326111e-01,4.929775372147560120e-02,4.726350307464599609e-02
-2.046233415603637695e+00,-2.220239877700805664e+00,8.423944711685180664e-01,0.000000000000000000e+00,0.000000000000000000e+00,0.000000000000000000e+00,0.000000000000000000e+00,0.000000000000000000e+00,0.000000000000000000e+00,0.000000000000000000e+00,0.000000000000000000e+00,8.697909861803054810e-02,2.541098841762901017e-21,5.434184148907661438e-02,7.128372788429260254e-02,-7.612882554531097412e-02,2.037058174610137939e-01,-1.283498406410217285e-01,-4.213424026966094971e-01,4.425584897398948669e-02,-6.495447456836700439e-02,-1.815023869276046753e-01,-8.016861975193023682e-02,-1.865047812461853027e-01,-6.888665258884429932e-02,-3.526655733585357666e-01,-1.366244107484817505e-01,2.178766578435897827e-02,-1.050595194101333618e-01,5.363599956035614014e-02,4.742792993783950806e-02
-2.045459032058715820e+00,-2.220140457153320312e+00,8.453654050827026367e-01,0.000000000000000000e+00,0.000000000000000000e+00,0.000000000000000000e+00,0.000000000000000000e+00,0.000000000000000000e+00,0.000000000000000000e+00,0.000000000000000000e+00,0.000000000000000000e+00,8.780603855848312378e-02,1.334076891925523034e-19,5.516878142952919006e-02,7.025291025638580322e-02,-7.441019266843795776e-02,2.057949751615524292e-01,-1.293343901634216309e-01,-4.221329391002655029e-01,4.448347538709640503e-02,-6.452644616365432739e-02,-1.810099184513092041e-01,-7.864384353160858154e-02,-1.868087500333786011e-01,-6.881379336118698120e-02,-3.532039821147918701e-01,-1.367908418178558350e-01,2.176669612526893616e-02,-1.038830876350402832e-01,5.758127197623252869e-02,4.755496233701705933e-02
-2.044234991073608398e+00,-2.219812870025634766e+00,8.480162024497985840e-01,0.000000000000000000e+00,0.000000000000000000e+00,0.000000000000000000e+00,0.000000000000000000e+00,0.000000000000000000e+00,0.000000000000000000e+00,0.000000000000000000e+00,0.000000000000000000e+00,8.819372206926345825e-02,-3.578714202149418933e-20,5.555646121501922607e-02,6.904895603656768799e-02,-7.289776206016540527e-02,2.077016979455947876e-01,-1.298008561134338379e-01,-4.228996336460113525e-01,4.475529491901397705e-02,-6.400256603956222534e-02,-1.806668490171432495e-01,-7.740069180727005005e-02,-1.875104308128356934e-01,-6.858017295598983765e-02,-3.541217446327209473e-01,-1.365437060594558716e-01,2.136247791349887848e-02,-1.032354831695556641e-01,6.099293753504753113e-02,4.762005433440208435e-02
-2.043073892593383789e+00,-2.219488620758056641e+00,8.496570587158203125e-01,0.000000000000000000e+00,0.000000000000000000e+00,0.000000000000000000e+00,0.000000000000000000e+00,0.000000000000000000e+00,0.000000000000000000e+00,0.000000000000000000e+00,0.000000000000000000e+00,8.925986289978027344e-02,-7.813878938420920628e-20,5.662260204553604126e-02,6.752754747867584229e-02,-7.179974019527435303e-02,2.087907791137695312e-01,-1.289052367210388184e-01,-4.237104058265686035e-01,4.600648209452629089e-02,-6.372247636318206787e-02,-1.803830862045288086e-01,-7.555803656578063965e-02,-1.830249428749084473e-01,-7.016424834728240967e-02,-3.532515764236450195e-01,-1.389494240283966064e-01,2.412252500653266907e-02,-1.012392938137054443e-01,6.436569988727569580e-02,4.811988398432731628e-02
-2.042037487030029297e+00,-2.219042062759399414e+00,8.555852770805358887e-01,0.000000000000000000e+00,0.000000000000000000e+00,0.000000000000000000e+00,0.000000000000000000e+00,0.000000000000000000e+00,0.000000000000000000e+00,0.000000000000000000e+00,0.000000000000000000e+00,8.961313962936401367e-02,-1.238785685359414246e-19,5.697588250041007996e-02,6.989429146051406860e-02,-7.120740413665771484e-02,2.085712701082229614e-01,-1.263686120510101318e-01,-4.249223172664642334e-01,4.877059161663055420e-02,-6.461271643638610840e-02,-1.804637610912322998e-01,-7.300201058387756348e-02,-1.827718913555145264e-01,-6.971280276775360107e-02,-3.527651429176330566e-01,-1.387066543102264404e-01,2.471821382641792297e-02,-9.945108741521835327e-02,6.916957348585128784e-02,4.785179719328880310e-02
-2.040567636489868164e+00,-2.218707323074340820e+00,8.563485741615295410e-01,0.000000000000000000e+00,0.000000000000000000e+00,0.000000000000000000e+00,0.000000000000000000e+00,0.000000000000000000e+00,0.000000000000000000e+00,0.000000000000000000e+00,0.000000000000000000e+00,8.997208625078201294e-02,3.536362554786703916e-20,5.733482539653778076e-02,6.751206517219543457e-02,-7.046420872211456299e-02,2.086232006549835205e-01,-1.238909363746643066e-01,-4.260661900043487549e-01,5.147124826908111572e-02,-6.527969986200332642e-02,-1.806178390979766846e-01,-7.115129381418228149e-02,-1.818027496337890625e-01,-7.129324972629547119e-02,-3.522002696990966797e-01,-1.399727165699005127e-01,2.514820173382759094e-02,-9.812531620264053345e-02,7.176362723112106323e-02,4.810122027993202209e-02
-2.038999080657958984e+00,-2.218492507934570312e+00,8.564361333847045898e-01,0.000000000000000000e+00,0.000000000000000000e+00,0.000000000000000000e+00,0.000000000000000000e+00,0.000000000000000000e+00,0.000000000000000000e+00,0.000000000000000000e+00,0.000000000000000000e+00,9.041108936071395874e-02,4.806911975668154424e-20,5.777382478117942810e-02,6.503517180681228638e-02,-6.969010084867477417e-02,2.092329561710357666e-01,-1.211612448096275330e-01,-4.270912110805511475e-01,5.438379943370819092e-02,-6.552477926015853882e-02,-1.807181537151336670e-01,-6.927107274532318115e-02,-1.790423840284347534e-01,-7.314152270555496216e-02,-3.512622416019439697e-01,-1.422858685255050659e-01,2.671479992568492889e-02,-9.650558233261108398e-02,7.398690283298492432e-02,4.824503138661384583e-02
-2.037000179290771484e+00,-2.217999219894409180e+00,8.583616018295288086e-01,0.000000000000000000e+00,0.000000000000000000e+00,0.000000000000000000e+00,0.000000000000000000e+00,0.000000000000000000e+00,0.000000000000000000e+00,0.000000000000000000e+00,0.000000000000000000e+00,9.090138971805572510e-02,-1.882530725272682504e-19,5.826413258910179138e-02,6.426767259836196899e-02,-6.868546456098556519e-02,2.103331685066223145e-01,-1.194290295243263245e-01,-4.280776083469390869e-01,5.645208805799484253e-02,-6.568749994039535522e-02,-1.806531399488449097e-01,-6.698610633611679077e-02,-1.794154942035675049e-01,-7.224017381668090820e-02,-3.507957160472869873e-01,-1.419762969017028809e-01,2.663368918001651764e-02,-9.528163820505142212e-02,7.604756206274032593e-02,4.810160398483276367e-02
-2.034609079360961914e+00,-2.217164278030395508e+00,8.573570251464843750e-01,0.000000000000000000e+00,0.000000000000000000e+00,0.000000000000000000e+00,0.000000000000000000e+00,0.000000000000000000e+00,0.000000000000000000e+00,0.000000000000000000e+00,0.000000000000000000e+00,9.125196188688278198e-02,9.529120656610878815e-21,5.861469730734825134e-02,6.138738989830017090e-02,-6.764788925647735596e-02,2.114738970994949341e-01,-1.174042299389839172e-01,-4.288053810596466064e-01,5.846618860960006714e-02,-6.570322066545486450e-02,-1.803899556398391724e-01,-6.522216647863388062e-02,-1.776049286127090454e-01,-7.409460097551345825e-02,-3.495256006717681885e-01,-1.438829451799392700e-01,2.763816900551319122e-02,-9.385335445404052734e-02,7.865281403064727783e-02,4.817217960953712463e-02
-2.031997680664062500e+00,-2.216201782226562500e+00,8.565987348556518555e-01,0.000000000000000000e+00,0.000000000000000000e+00,0.000000000000000000e+00,0.000000000000000000e+00,0.000000000000000000e+00,0.000000000000000000e+00,0.000000000000000000e+00,0.000000000000000000e+00,9.106053411960601807e-02,-1.914253953145816922e-04,5.842327326536178589e-02,5.866388604044914246e-02,-6.649933010339736938e-02,2.126578688621520996e-01,-1.158701777458190918e-01,-4.295836091041564941e-01,6.054464727640151978e-02,-6.594279408454895020e-02,-1.802129447460174561e-01,-6.347947567701339722e-02,-1.764258444309234619e-01,-7.540601491928100586e-02,-3.486120104789733887e-01,-1.457653045654296875e-01,2.823435701429843903e-02,-9.247475117444992065e-02,8.035502582788467407e-02,4.811095446348190308e-02
-2.029314517974853516e+00,-2.215261936187744141e+00,8.564142584800720215e-01,0.000000000000000000e+00,0.000000000000000000e+00,0.000000000000000000e+00,0.000000000000000000e+00,0.000000000000000000e+00,0.000000000000000000e+00,0.000000000000000000e+00,0.000000000000000000e+00,9.087554365396499634e-02,-3.764180873986333609e-04,5.823828279972076416e-02,5.680996924638748169e-02,-6.551314890384674072e-02,2.137075960636138916e-01,-1.135652437806129456e-01,-4.301637709140777588e-01,6.276521086692810059e-02,-6.609625369310379028e-02,-1.801172941923141479e-01,-6.206995993852615356e-02,-1.761646717786788940e-01,-7.613665610551834106e-02,-3.479039371013641357e-01,-1.468477249145507812e-01,2.846354991197586060e-02,-9.145891666412353516e-02,8.201387524604797363e-02,4.831161350011825562e-02
-2.027031421661376953e+00,-2.214770317077636719e+00,8.547899723052978516e-01,0.000000000000000000e+00,0.000000000000000000e+00,0.000000000000000000e+00,0.000000000000000000e+00,0.000000000000000000e+00,0.000000000000000000e+00,0.000000000000000000e+00,0.000000000000000000e+00,9.090216457843780518e-02,-3.497968427836894989e-04,5.826490372419357300e-02,5.453257262706756592e-02,-6.447274982929229736e-02,2.153800278902053833e-01,-1.116289645433425903e-01,-4.308732450008392334e-01,6.457133591175079346e-02,-6.584879010915756226e-02,-1.801123470067977905e-01,-6.097839400172233582e-02,-1.750377565622329712e-01,-7.764998823404312134e-02,-3.469675481319427490e-01,-1.487216055393218994e-01,2.913320995867252350e-02,-9.066631644964218140e-02,8.446372300386428833e-02,4.836199060082435608e-02
-2.024410247802734375e+00,-2.213878631591796875e+00,8.497524261474609375e-01,0.000000000000000000e+00,0.000000000000000000e+00,0.000000000000000000e+00,0.000000000000000000e+00,0.000000000000000000e+00,0.000000000000000000e+00,0.000000000000000000e+00,0.000000000000000000e+00,9.124122560024261475e-02,-1.748984141158871353e-05,5.860396474599838257e-02,4.927771911025047302e-02,-6.323787569999694824e-02,2.170377224683761597e-01,-1.088398098945617676e-01,-4.312610924243927002e-01,6.703409552574157715e-02,-6.571480631828308105e-02,-1.799869686365127563e-01,-6.067300960421562195e-02,-1.725375503301620483e-01,-7.871520519256591797e-02,-3.465445935726165771e-01,-1.509093791246414185e-01,3.087936714291572571e-02,-8.997128158807754517e-02,8.171969652175903320e-02,4.901570454239845276e-02
-2.021149158477783203e+00,-2.212516546249389648e+00,8.501029610633850098e-01,0.000000000000000000e+00,0.000000000000000000e+00,0.000000000000000000e+00,0.000000000000000000e+00,0.000000000000000000e+00,0.000000000000000000e+00,0.000000000000000000e+00,0.000000000000000000e+00,9.127595275640487671e-02,-8.744920592107519042e-07,5.863869562745094299e-02,4.943041875958442688e-02,-6.215207651257514954e-02,2.184322625398635864e-01,-1.055761650204658508e-01,-4.318090081214904785e-01,6.982972472906112671e-02,-6.534799933433532715e-02,-1.801396012306213379e-01,-6.019566208124160767e-02,-1.718844920396804810e-01,-7.995086908340454102e-02,-3.463386595249176025e-01,-1.528727859258651733e-01,3.124528564512729645e-02,-8.967368304729461670e-02,8.424837887287139893e-02,4.936304315924644470e-02
-2.017446041107177734e+00,-2.210539579391479492e+00,8.501463532447814941e-01,0.000000000000000000e+00,0.000000000000000000e+00,0.000000000000000000e+00,0.000000000000000000e+00,0.000000000000000000e+00,0.000000000000000000e+00,0.000000000000000000e+00,0.000000000000000000e+00,9.111804515123367310e-02,-1.587861188454553485e-04,5.848078429698944092e-02,4.927202686667442322e-02,-6.087885797023773193e-02,2.204255014657974243e-01,-1.026138439774513245e-01,-4.323190152645111084e-01,7.221514731645584106e-02,-6.463110446929931641e-02,-1.802304983139038086e-01,-5.970082432031631470e-02,-1.711643338203430176e-01,-8.105999976396560669e-02,-3.462642431259155273e-01,-1.548076719045639038e-01,3.165717422962188721e-02,-8.947187662124633789e-02,8.586910367012023926e-02,4.920673370361328125e-02
-2.013733148574829102e+00,-2.208899974822998047e+00,8.483923673629760742e-01,0.000000000000000000e+00,0.000000000000000000e+00,0.000000000000000000e+00,0.000000000000000000e+00,0.000000000000000000e+00,0.000000000000000000e+00,0.000000000000000000e+00,0.000000000000000000e+00,9.216766804456710815e-02,-7.939305760373827070e-06,5.953040719032287598e-02,4.799066483974456787e-02,-5.950876325368881226e-02,2.229315042495727539e-01,-9.974592924118041992e-02,-4.329240322113037109e-01,7.449778169393539429e-02,-6.363297998905181885e-02,-1.802333295345306396e-01,-5.918541550636291504e-02,-1.698758155107498169e-01,-8.180965483188629150e-02,-3.462381958961486816e-01,-1.568142771720886230e-01,3.234239667654037476e-02,-8.923830091953277588e-02,8.582112193107604980e-02,4.975572973489761353e-02
-2.009822130203247070e+00,-2.207405567169189453e+00,8.475104570388793945e-01,0.000000000000000000e+00,0.000000000000000000e+00,0.000000000000000000e+00,0.000000000000000000e+00,0.000000000000000000e+00,0.000000000000000000e+00,0.000000000000000000e+00,0.000000000000000000e+00,9.384877234697341919e-02,-3.969653050717170117e-07,6.121150776743888855e-02,4.784315451979637146e-02,-5.779910832643508911e-02,2.263856828212738037e-01,-9.765923768281936646e-02,-4.334807991981506348e-01,7.633648067712783813e-02,-6.229420378804206848e-02,-1.800937354564666748e-01,-5.864938348531723022e-02,-1.689129471778869629e-01,-8.176511526107788086e-02,-3.466551303863525391e-01,-1.586758941411972046e-01,3.292623162269592285e-02,-8.926539868116378784e-02,8.551180362701416016e-02,5.025034397840499878e-02
-2.006121158599853516e+00,-2.205824851989746094e+00,8.485358357429504395e-01,0.000000000000000000e+00,0.000000000000000000e+00,0.000000000000000000e+00,0.000000000000000000e+00,0.000000000000000000e+00,0.000000000000000000e+00,0.000000000000000000e+00,0.000000000000000000e+00,9.576393663883209229e-02,-1.984826525358585059e-08,6.312667578458786011e-02,4.977311939001083374e-02,-5.636103078722953796e-02,2.299439758062362671e-01,-9.597642719745635986e-02,-4.346875846385955811e-01,7.788515090942382812e-02,-6.093749031424522400e-02,-1.804641187191009521e-01,-5.780109763145446777e-02,-1.681823879480361938e-01,-8.032606542110443115e-02,-3.473547697067260742e-01,-1.597981303930282593e-01,3.339379280805587769e-02,-8.961989730596542358e-02,8.542980253696441650e-02,5.011959373950958252e-02
-2.002102136611938477e+00,-2.204173326492309570e+00,8.512463569641113281e-01,0.000000000000000000e+00,0.000000000000000000e+00,0.000000000000000000e+00,0.000000000000000000e+00,0.000000000000000000e+00,0.000000000000000000e+00,0.000000000000000000e+00,0.000000000000000000e+00,9.846095740795135498e-02,-9.924132626792925294e-10,6.582369655370712280e-02,5.396638065576553345e-02,-5.560030788183212280e-02,2.324557900428771973e-01,-9.374663978815078735e-02,-4.368847906589508057e-01,8.032193034887313843e-02,-6.015566736459732056e-02,-1.813082695007324219e-01,-5.591254308819770813e-02,-1.668782234191894531e-01,-7.773366570472717285e-02,-3.477730154991149902e-01,-1.606528759002685547e-01,3.436953201889991760e-02,-8.950215578079223633e-02,8.536217361688613892e-02,5.012355744838714600e-02
-1.997413873672485352e+00,-2.201253890991210938e+00,8.578328490257263184e-01,0.000000000000000000e+00,0.000000000000000000e+00,0.000000000000000000e+00,0.000000000000000000e+00,0.000000000000000000e+00,0.000000000000000000e+00,0.000000000000000000e+00,0.000000000000000000e+00,1.009790152311325073e-01,-4.962066174618584569e-11,6.834175437688827515e-02,6.163776293396949768e-02,-5.465902760624885559e-02,2.349198758602142334e-01,-9.129008650779724121e-02,-4.388191103935241699e-01,8.269938081502914429e-02,-5.901432782411575317e-02,-1.818996071815490723e-01,-5.307147651910781860e-02,-1.663859188556671143e-01,-7.464911043643951416e-02,-3.479239046573638916e-01,-1.610557585954666138e-01,3.502217680215835571e-02,-8.888870477676391602e-02,8.699283748865127563e-02,4.903122037649154663e-02
-1.993240952491760254e+00,-2.198276042938232422e+00,8.616739511489868164e-01,0.000000000000000000e+00,0.000000000000000000e+00,0.000000000000000000e+00,0.000000000000000000e+00,0.000000000000000000e+00,0.000000000000000000e+00,0.000000000000000000e+00,0.000000000000000000e+00,1.053114905953407288e-01,-2.481032306683728095e-12,7.267423719167709351e-02,6.857473403215408325e-02,-5.285962671041488647e-02,2.397837638854980469e-01,-9.093724191188812256e-02,-4.408773481845855713e-01,8.337521553039550781e-02,-5.678661167621612549e-02,-1.825431287288665771e-01,-4.983706027269363403e-02,-1.654487103223800659e-01,-6.938647478818893433e-02,-3.475509881973266602e-01,-1.606014221906661987e-01,3.624979779124259949e-02,-8.790837228298187256e-02,8.794700354337692261e-02,4.796902835369110107e-02
-1.989037156105041504e+00,-2.194458484649658203e+00,8.633320331573486328e-01,0.000000000000000000e+00,0.000000000000000000e+00,0.000000000000000000e+00,0.000000000000000000e+00,0.000000000000000000e+00,0.000000000000000000e+00,0.000000000000000000e+00,0.000000000000000000e+00,1.090582758188247681e-01,-1.240504823429161574e-13,7.642102241516113281e-02,7.367691397666931152e-02,-5.048121511936187744e-02,2.433902472257614136e-01,-9.149551391601562500e-02,-4.432851076126098633e-01,8.413210511207580566e-02,-5.527092888951301575e-02,-1.834898144006729126e-01,-4.780773818492889404e-02,-1.650312691926956177e-01,-6.471727043390274048e-02,-3.480877280235290527e-01,-1.606351435184478760e-01,3.748777881264686584e-02,-8.742412924766540527e-02,8.898889273405075073e-02,4.689078032970428467e-02
-1.984615683555603027e+00,-2.189872980117797852e+00,8.650248050689697266e-01,0.000000000000000000e+00,0.000000000000000000e+00,0.000000000000000000e+00,0.000000000000000000e+00,0.000000000000000000e+00,0.000000000000000000e+00,0.000000000000000000e+00,0.000000000000000000e+00,1.126414388418197632e-01,-6.201570358047199527e-15,8.000417798757553101e-02,7.883237302303314209e-02,-4.756393283605575562e-02,2.442776113748550415e-01,-9.018891304731369019e-02,-4.450689554214477539e-01,8.679927140474319458e-02,-5.494648590683937073e-02,-1.842346340417861938e-01,-4.662406072020530701e-02,-1.652383059263229370e-01,-6.062271445989608765e-02,-3.482299447059631348e-01,-1.607252359390258789e-01,3.859335184097290039e-02,-8.676241338253021240e-02,8.924540877342224121e-02,4.607108235359191895e-02
-1.980315208435058594e+00,-2.185019016265869141e+00,8.624088168144226074e-01,0.000000000000000000e+00,0.000000000000000000e+00,0.000000000000000000e+00,0.000000000000000000e+00,0.000000000000000000e+00,0.000000000000000000e+00,0.000000000000000000e+00,0.000000000000000000e+00,1.176014691591262817e-01,-3.103751064888410696e-16,8.496421575546264648e-02,8.082541078329086304e-02,-4.256591573357582092e-02,2.474064081907272339e-01,-9.051128476858139038e-02,-4.453519284725189209e-01,8.774450421333312988e-02,-5.351066216826438904e-02,-1.843577027320861816e-01,-4.687947034835815430e-02,-1.655761152505874634e-01,-5.862576514482498169e-02,-3.495900630950927734e-01,-1.617529094219207764e-01,3.895739465951919556e-02,-8.696533739566802979e-02,8.936087787151336670e-02,4.536028206348419189e-02
-1.975772380828857422e+00,-2.179365158081054688e+00,8.589897155761718750e-01,0.000000000000000000e+00,0.000000000000000000e+00,0.000000000000000000e+00,0.000000000000000000e+00,0.000000000000000000e+00,0.000000000000000000e+00,0.000000000000000000e+00,0.000000000000000000e+00,1.225538775324821472e-01,-1.338100298424980961e-17,8.991661667823791504e-02,8.202199637889862061e-02,-3.674166277050971985e-02,2.494010478258132935e-01,-8.898936957120895386e-02,-4.441072940826416016e-01,9.000710397958755493e-02,-5.178128555417060852e-02,-1.833403110504150391e-01,-4.870485886931419373e-02,-1.658815592527389526e-01,-5.672383308410644531e-02,-3.510640263557434082e-01,-1.628859639167785645e-01,3.954586386680603027e-02,-8.716206997632980347e-02,8.630705624818801880e-02,4.540275782346725464e-02
-1.970904707908630371e+00,-2.172395229339599609e+00,8.569300770759582520e-01,0.000000000000000000e+00,0.000000000000000000e+00,0.000000000000000000e+00,0.000000000000000000e+00,0.000000000000000000e+00,0.000000000000000000e+00,0.000000000000000000e+00,0.000000000000000000e+00,1.270166039466857910e-01,7.051549285892050323e-19,9.437933564186096191e-02,8.468332886695861816e-02,-3.017268516123294830e-02,2.508348524570465088e-01,-8.662309497594833374e-02,-4.420838057994842529e-01,9.262385964393615723e-02,-5.015663430094718933e-02,-1.818612217903137207e-01,-5.173657462000846863e-02,-1.661322265863418579e-01,-5.607259273529052734e-02,-3.535645902156829834e-01,-1.647033840417861938e-01,4.004464298486709595e-02,-8.803968876600265503e-02,8.468163013458251953e-02,4.518330469727516174e-02
-1.966128587722778320e+00,-2.164533138275146484e+00,8.535094857215881348e-01,0.000000000000000000e+00,0.000000000000000000e+00,0.000000000000000000e+00,0.000000000000000000e+00,0.000000000000000000e+00,0.000000000000000000e+00,0.000000000000000000e+00,0.000000000000000000e+00,1.305005252361297607e-01,-2.435219723356113475e-19,9.786326438188552856e-02,8.604779094457626343e-02,-2.251085080206394196e-02,2.514155507087707520e-01,-8.424501866102218628e-02,-4.388589262962341309e-01,9.481472522020339966e-02,-4.886769503355026245e-02,-1.793863326311111450e-01,-5.656405165791511536e-02,-1.659821867942810059e-01,-5.625483021140098572e-02,-3.583192825317382812e-01,-1.661694198846817017e-01,4.059343412518501282e-02,-8.980662375688552856e-02,8.151423186063766479e-02,4.555805772542953491e-02
-1.960973978042602539e+00,-2.155726432800292969e+00,8.515251278877258301e-01,0.000000000000000000e+00,0.000000000000000000e+00,0.000000000000000000e+00,0.000000000000000000e+00,0.000000000000000000e+00,0.000000000000000000e+00,0.000000000000000000e+00,0.000000000000000000e+00,1.347078531980514526e-01,9.169131654027801170e-19,1.020705923438072205e-01,8.839605003595352173e-02,-1.379883475601673126e-02,2.510871589183807373e-01,-8.160419762134552002e-02,-4.347699582576751709e-01,9.728568047285079956e-02,-4.859900102019309998e-02,-1.765373945236206055e-01,-6.141461431980133057e-02,-1.654592603445053101e-01,-5.514619126915931702e-02,-3.644569218158721924e-01,-1.669459044933319092e-01,4.170269146561622620e-02,-9.225207567214965820e-02,7.652062922716140747e-02,4.519014433026313782e-02
-1.955230116844177246e+00,-2.146114110946655273e+00,8.508677482604980469e-01,0.000000000000000000e+00,0.000000000000000000e+00,0.000000000000000000e+00,0.000000000000000000e+00,0.000000000000000000e+00,0.000000000000000000e+00,0.000000000000000000e+00,0.000000000000000000e+00,1.386554092168807983e-01,-3.773531780017908011e-19,1.060181483626365662e-01,9.164397418498992920e-02,-4.529593978077173233e-03,2.498053312301635742e-01,-7.737358659505844116e-02,-4.293116331100463867e-01,1.009267196059226990e-01,-4.878940433263778687e-02,-1.729684472084045410e-01,-6.696347892284393311e-02,-1.652959287166595459e-01,-5.394096300005912781e-02,-3.714422881603240967e-01,-1.676850318908691406e-01,4.281564056873321533e-02,-9.520324319601058960e-02,7.048381119966506958e-02,4.467850923538208008e-02
-1.948468089103698730e+00,-2.135285377502441406e+00,8.492297530174255371e-01,0.000000000000000000e+00,0.000000000000000000e+00,0.000000000000000000e+00,0.000000000000000000e+00,0.000000000000000000e+00,0.000000000000000000e+00,0.000000000000000000e+00,0.000000000000000000e+00,1.413875669240951538e-01,-2.498747194400186000e-20,1.087503060698509216e-01,9.338191151618957520e-02,5.234226584434509277e-03,2.486064583063125610e-01,-7.460188120603561401e-02,-4.244144260883331299e-01,1.032549887895584106e-01,-4.907359927892684937e-02,-1.700274646282196045e-01,-7.248269766569137573e-02,-1.665608286857604980e-01,-4.926876351237297058e-02,-3.800002932548522949e-01,-1.657043993473052979e-01,4.361771047115325928e-02,-9.880024939775466919e-02,6.047609075903892517e-02,4.179929196834564209e-02
-1.940815329551696777e+00,-2.123420953750610352e+00,8.485719561576843262e-01,0.000000000000000000e+00,0.000000000000000000e+00,0.000000000000000000e+00,0.000000000000000000e+00,0.000000000000000000e+00,0.000000000000000000e+00,0.000000000000000000e+00,0.000000000000000000e+00,1.432259231805801392e-01,-3.502481236896531902e-19,1.105886697769165039e-01,9.617356956005096436e-02,1.583868265151977539e-02,2.470116168260574341e-01,-7.219131290912628174e-02,-4.194009304046630859e-01,1.055695191025733948e-01,-4.950554296374320984e-02,-1.670140177011489868e-01,-7.811165601015090942e-02,-1.683303117752075195e-01,-4.454833641648292542e-02,-3.896345496177673340e-01,-1.637502163648605347e-01,4.436478763818740845e-02,-1.028840690851211548e-01,5.185812711715698242e-02,3.617275133728981018e-02
-1.932219266891479492e+00,-2.109080076217651367e+00,8.464820384979248047e-01,0.000000000000000000e+00,0.000000000000000000e+00,0.000000000000000000e+00,0.000000000000000000e+00,0.000000000000000000e+00,0.000000000000000000e+00,0.000000000000000000e+00,0.000000000000000000e+00,1.455436199903488159e-01,3.815883427380623028e-19,1.129063591361045837e-01,9.785108268260955811e-02,2.717578969895839691e-02,2.453951239585876465e-01,-7.125344127416610718e-02,-4.145856201648712158e-01,1.065642014145851135e-01,-5.015015974640846252e-02,-1.640741825103759766e-01,-8.422569185495376587e-02,-1.696907281875610352e-01,-3.952224552631378174e-02,-4.004201292991638184e-01,-1.617590785026550293e-01,4.588589817285537720e-02,-1.074524894356727600e-01,4.360188543796539307e-02,3.043871186673641205e-02
-1.923403620719909668e+00,-2.093103408813476562e+00,8.435533046722412109e-01,0.000000000000000000e+00,0.000000000000000000e+00,0.000000000000000000e+00,0.000000000000000000e+00,0.000000000000000000e+00,0.000000000000000000e+00,0.000000000000000000e+00,0.000000000000000000e+00,1.475926637649536133e-01,3.002731798016494702e-19,1.149554029107093811e-01,9.860326349735260010e-02,3.904647380113601685e-02,2.436473667621612549e-01,-7.059632986783981323e-02,-4.096812903881072998e-01,1.074951887130737305e-01,-5.075494945049285889e-02,-1.610674709081649780e-01,-9.033767879009246826e-02,-1.715552508831024170e-01,-3.486441448330879211e-02,-4.114949703216552734e-01,-1.598741114139556885e-01,4.692062735557556152e-02,-1.121916770935058594e-01,3.564858809113502502e-02,2.423625439405441284e-02
-1.913475871086120605e+00,-2.075022220611572266e+00,8.417395353317260742e-01,0.000000000000000000e+00,0.000000000000000000e+00,0.000000000000000000e+00,0.000000000000000000e+00,0.000000000000000000e+00,0.000000000000000000e+00,0.000000000000000000e+00,0.000000000000000000e+00,1.493728607892990112e-01,1.647479082409614159e-19,1.167355999350547791e-01,1.002242118120193481e-01,4.974494501948356628e-02,2.410647273063659668e-01,-6.946270912885665894e-02,-4.053784608840942383e-01,1.089880242943763733e-01,-5.196637287735939026e-02,-1.585637480020523071e-01,-9.555065631866455078e-02,-1.737312376499176025e-01,-2.969271875917911530e-02,-4.220357239246368408e-01,-1.578654944896697998e-01,4.857547581195831299e-02,-1.164316236972808838e-01,2.791501395404338837e-02,1.829148270189762115e-02
-1.903311610221862793e+00,-2.054840087890625000e+00,8.389228582382202148e-01,0.000000000000000000e+00,0.000000000000000000e+00,0.000000000000000000e+00,0.000000000000000000e+00,0.000000000000000000e+00,0.000000000000000000e+00,0.000000000000000000e+00,0.000000000000000000e+00,1.511915028095245361e-01,4.357984513623375245e-19,1.185542494058609009e-01,1.001066640019416809e-01,5.957840383052825928e-02,2.382981777191162109e-01,-6.842883676290512085e-02,-4.013392031192779541e-01,1.101214140653610229e-01,-5.303272232413291931e-02,-1.561769694089889526e-01,-1.002905592322349548e-01,-1.763235032558441162e-01,-2.521993219852447510e-02,-4.319194853305816650e-01,-1.563175320625305176e-01,4.981316626071929932e-02,-1.203894838690757751e-01,1.937785185873508453e-02,1.354861166328191757e-02
-1.891953945159912109e+00,-2.032402992248535156e+00,8.367416858673095703e-01,0.000000000000000000e+00,0.000000000000000000e+00,0.000000000000000000e+00,0.000000000000000000e+00,0.000000000000000000e+00,0.000000000000000000e+00,0.000000000000000000e+00,0.000000000000000000e+00,1.530047804117202759e-01,2.460630711773742485e-19,1.203675121068954468e-01,9.931210428476333618e-02,6.802428513765335083e-02,2.348943054676055908e-01,-6.703045964241027832e-02,-3.978904485702514648e-01,1.115568429231643677e-01,-5.434294790029525757e-02,-1.539612710475921631e-01,-1.034154146909713745e-01,-1.794425249099731445e-01,-2.091605402529239655e-02,-4.401095807552337646e-01,-1.546524912118911743e-01,5.084674060344696045e-02,-1.232360526919364929e-01,1.093283295631408691e-02,9.339084848761558533e-03
-1.879781603813171387e+00,-2.008670330047607422e+00,8.344136476516723633e-01,0.000000000000000000e+00,0.000000000000000000e+00,0.000000000000000000e+00,0.000000000000000000e+00,0.000000000000000000e+00,0.000000000000000000e+00,0.000000000000000000e+00,0.000000000000000000e+00,1.546444743871688843e-01,-2.011703249728963305e-19,1.220072135329246521e-01,9.681982547044754028e-02,7.432667911052703857e-02,2.313009202480316162e-01,-6.557143479585647583e-02,-3.953872919082641602e-01,1.131456047296524048e-01,-5.598410964012145996e-02,-1.522878557443618774e-01,-1.043724417686462402e-01,-1.826275736093521118e-01,-1.816548779606819153e-02,-4.457455277442932129e-01,-1.538731604814529419e-01,5.145204812288284302e-02,-1.247400864958763123e-01,2.343862084671854973e-03,5.688745528459548950e-03
-1.867134809494018555e+00,-1.984378814697265625e+00,8.301199674606323242e-01,0.000000000000000000e+00,0.000000000000000000e+00,0.000000000000000000e+00,0.000000000000000000e+00,0.000000000000000000e+00,0.000000000000000000e+00,0.000000000000000000e+00,0.000000000000000000e+00,1.554366946220397949e-01,-6.564505341220827628e-20,1.227994337677955627e-01,9.085728973150253296e-02,7.813610136508941650e-02,2.274795770645141602e-01,-6.458537280559539795e-02,-3.939139842987060547e-01,1.142678707838058472e-01,-5.818933248519897461e-02,-1.507046669721603394e-01,-1.041104495525360107e-01,-1.842458993196487427e-01,-1.887036114931106567e-02,-4.488132596015930176e-01,-1.555512249469757080e-01,5.287541821599006653e-02,-1.251626163721084595e-01,-5.834336392581462860e-03,2.968776971101760864e-03
-1.854557871818542480e+00,-1.960359215736389160e+00,8.269742727279663086e-01,0.000000000000000000e+00,0.000000000000000000e+00,0.000000000000000000e+00,0.000000000000000000e+00,0.000000000000000000e+00,0.000000000000000000e+00,0.000000000000000000e+00,0.000000000000000000e+00,1.557957381010055542e-01,-1.143494478793305458e-20,1.231584697961807251e-01,8.397164940834045410e-02,7.889031618833541870e-02,2.247349917888641357e-01,-6.486570090055465698e-02,-3.940359354019165039e-01,1.145218014717102051e-01,-6.058568879961967468e-02,-1.496119648218154907e-01,-1.020348146557807922e-01,-1.874628961086273193e-01,-1.913028396666049957e-02,-4.494529664516448975e-01,-1.564279198646545410e-01,5.314870551228523254e-02,-1.242392286658287048e-01,-1.341429073363542557e-02,1.039232942275702953e-03
-1.841350436210632324e+00,-1.936815381050109863e+00,8.237423896789550781e-01,0.000000000000000000e+00,0.000000000000000000e+00,0.000000000000000000e+00,0.000000000000000000e+00,0.000000000000000000e+00,0.000000000000000000e+00,0.000000000000000000e+00,0.000000000000000000e+00,1.547226458787918091e-01,-1.073087216354906559e-03,1.220853850245475769e-01,7.562769949436187744e-02,7.621765136718750000e-02,2.240075469017028809e-01,-6.632900983095169067e-02,-3.960921466350555420e-01,1.138280779123306274e-01,-6.243629008531570435e-02,-1.491567939519882202e-01,-9.855993837118148804e-02,-1.901146620512008667e-01,-1.961860805749893188e-02,-4.479939043521881104e-01,-1.576239615678787231e-01,5.370635166764259338e-02,-1.220132112503051758e-01,-2.007977291941642761e-02,2.125842584064230323e-04
-1.828078269958496094e+00,-1.913743615150451660e+00,8.212776184082031250e-01,0.000000000000000000e+00,0.000000000000000000e+00,0.000000000000000000e+00,0.000000000000000000e+00,0.000000000000000000e+00,0.000000000000000000e+00,0.000000000000000000e+00,0.000000000000000000e+00,1.527100801467895508e-01,-3.085655393078923225e-03,1.200728192925453186e-01,6.613063812255859375e-02,7.002653181552886963e-02,2.252611517906188965e-01,-6.887806951999664307e-02,-4.000996649265289307e-01,1.122332364320755005e-01,-6.397916376590728760e-02,-1.493955701589584351e-01,-9.372545033693313599e-02,-1.923074573278427124e-01,-2.005671896040439606e-02,-4.449219107627868652e-01,-1.587717831134796143e-01,5.436852201819419861e-02,-1.188316792249679565e-01,-2.590871043503284454e-02,5.053690401837229729e-04
-1.813877105712890625e+00,-1.890600442886352539e+00,8.197203874588012695e-01,0.000000000000000000e+00,0.000000000000000000e+00,0.000000000000000000e+00,0.000000000000000000e+00,0.000000000000000000e+00,0.000000000000000000e+00,0.000000000000000000e+00,0.000000000000000000e+00,1.493196934461593628e-01,-6.476036272943019867e-03,1.166824325919151306e-01,5.620072036981582642e-02,5.976914614439010620e-02,2.289868891239166260e-01,-7.172558456659317017e-02,-4.063279330730438232e-01,1.096047684550285339e-01,-6.432402878999710083e-02,-1.506841182708740234e-01,-8.740331977605819702e-02,-1.944457888603210449e-01,-2.040314860641956329e-02,-4.406343996524810791e-01,-1.597124189138412476e-01,5.509817972779273987e-02,-1.149888187646865845e-01,-3.080060891807079315e-02,2.434346126392483711e-03
-1.800259232521057129e+00,-1.867613196372985840e+00,8.205829858779907227e-01,0.000000000000000000e+00,0.000000000000000000e+00,0.000000000000000000e+00,0.000000000000000000e+00,0.000000000000000000e+00,0.000000000000000000e+00,0.000000000000000000e+00,0.000000000000000000e+00,1.449889391660690308e-01,-1.080679334700107574e-02,1.123516783118247986e-01,4.807697981595993042e-02,4.474110901355743408e-02,2.342199236154556274e-01,-7.410568743944168091e-02,-4.158854186534881592e-01,1.063147857785224915e-01,-6.393688917160034180e-02,-1.533725112676620483e-01,-7.870779186487197876e-02,-1.966546028852462769e-01,-1.866286993026733398e-02,-4.348956346511840820e-01,-1.591019928455352783e-01,5.615859106183052063e-02,-1.103329434990882874e-01,-3.541530296206474304e-02,5.868205334991216660e-03
-1.786252140998840332e+00,-1.845113158226013184e+00,8.244721889495849609e-01,0.000000000000000000e+00,0.000000000000000000e+00,0.000000000000000000e+00,0.000000000000000000e+00,0.000000000000000000e+00,0.000000000000000000e+00,0.000000000000000000e+00,0.000000000000000000e+00,1.400185227394104004e-01,-1.577720418572425842e-02,1.073812693357467651e-01,4.231791570782661438e-02,2.487083524465560913e-02,2.394152581691741943e-01,-7.311897724866867065e-02,-4.289644658565521240e-01,1.048322767019271851e-01,-6.277123093605041504e-02,-1.581992805004119873e-01,-6.775467097759246826e-02,-1.992469578981399536e-01,-1.641565375030040741e-02,-4.274857938289642334e-01,-1.580091565847396851e-01,5.689295381307601929e-02,-1.048548743128776550e-01,-4.000895842909812927e-02,1.108795776963233948e-02
-1.771885752677917480e+00,-1.823775649070739746e+00,8.289432525634765625e-01,0.000000000000000000e+00,0.000000000000000000e+00,0.000000000000000000e+00,0.000000000000000000e+00,0.000000000000000000e+00,0.000000000000000000e+00,0.000000000000000000e+00,0.000000000000000000e+00,1.344140619039535522e-01,-2.138166688382625580e-02,1.017768085002899170e-01,3.668597340583801270e-02,1.261403900571167469e-03,2.437086403369903564e-01,-7.111608982086181641e-02,-4.461775124073028564e-01,1.044021695852279663e-01,-6.234123930335044861e-02,-1.656714528799057007e-01,-5.510143563151359558e-02,-2.023851424455642700e-01,-1.370489876717329025e-02,-4.194101393222808838e-01,-1.565685570240020752e-01,5.699043348431587219e-02,-9.936326742172241211e-02,-4.430459439754486084e-02,1.738246344029903412e-02
-1.748436927795410156e+00,-1.787998199462890625e+00,8.509868979454040527e-01,0.000000000000000000e+00,0.000000000000000000e+00,0.000000000000000000e+00,0.000000000000000000e+00,0.000000000000000000e+00,0.000000000000000000e+00,0.000000000000000000e+00,0.000000000000000000e+00,1.289137154817581177e-01,-2.688201330602169037e-02,9.627646207809448242e-02,1.087609305977821350e-02,-8.144658803939819336e-02,2.570668756961822510e-01,-6.281668692827224731e-02,-5.115025639533996582e-01,1.028398424386978149e-01,-6.419976055622100830e-02,-1.928039491176605225e-01,-8.677518926560878754e-03,-2.069917023181915283e-01,-7.069744635373353958e-03,-3.900190591812133789e-01,-1.528426855802536011e-01,6.359884887933731079e-02,-7.819925993680953979e-02,-6.135360151529312134e-02,4.829534888267517090e-02
-1.739188075065612793e+00,-1.775357484817504883e+00,8.529987931251525879e-01,0.000000000000000000e+00,0.000000000000000000e+00,0.000000000000000000e+00,0.000000000000000000e+00,0.000000000000000000e+00,0.000000000000000000e+00,0.000000000000000000e+00,0.000000000000000000e+00,1.261373758316040039e-01,-2.965835668146610260e-02,9.350011497735977173e-02,3.957202658057212830e-03,-9.670325368642807007e-02,2.593873739242553711e-01,-6.174897775053977966e-02,-5.247125029563903809e-01,1.022096872329711914e-01,-6.468344479799270630e-02,-1.982106715440750122e-01,-1.866651116870343685e-03,-2.070717960596084595e-01,-7.485142908990383148e-03,-3.855457603931427002e-01,-1.529159545898437500e-01,6.481742858886718750e-02,-7.485606521368026733e-02,-6.410351395606994629e-02,5.412803217768669128e-02
-1.726684451103210449e+00,-1.758122086524963379e+00,8.549523353576660156e-01,0.000000000000000000e+00,0.000000000000000000e+00,0.000000000000000000e+00,0.000000000000000000e+00,0.000000000000000000e+00,0.000000000000000000e+00,0.000000000000000000e+00,0.000000000000000000e+00,1.225113049149513245e-01,-3.328442573547363281e-02,8.987404406070709229e-02,-3.252234775573015213e-03,-1.151342988014221191e-01,2.622421085834503174e-01,-6.070540845394134521e-02,-5.415248870849609375e-01,1.012696921825408936e-01,-6.501489877700805664e-02,-2.056606709957122803e-01,6.665152963250875473e-03,-2.068715542554855347e-01,-7.641254924237728119e-03,-3.793823421001434326e-01,-1.524041146039962769e-01,6.584253162145614624e-02,-7.071522623300552368e-02,-6.675206869840621948e-02,6.034704670310020447e-02
-1.712042927742004395e+00,-1.739009976387023926e+00,8.571154475212097168e-01,0.000000000000000000e+00,0.000000000000000000e+00,0.000000000000000000e+00,0.000000000000000000e+00,0.000000000000000000e+00,0.000000000000000000e+00,0.000000000000000000e+00,0.000000000000000000e+00,1.166839003562927246e-01,-3.911183029413223267e-02,8.404663950204849243e-02,-1.012148428708314896e-02,-1.360964924097061157e-01,2.644035220146179199e-01,-5.624176934361457825e-02,-5.608043670654296875e-01,1.007412895560264587e-01,-6.381775438785552979e-02,-2.160531580448150635e-01,1.549033261835575104e-02,-2.059676647186279297e-01,-1.170155871659517288e-02,-3.723456263542175293e-01,-1.518605202436447144e-01,6.521307677030563354e-02,-6.740467995405197144e-02,-6.924901902675628662e-02,6.569907814264297485e-02
-1.696129202842712402e+00,-1.718431591987609863e+00,8.597780466079711914e-01,0.000000000000000000e+00,0.000000000000000000e+00,0.000000000000000000e+00,0.000000000000000000e+00,0.000000000000000000e+00,0.000000000000000000e+00,0.000000000000000000e+00,0.000000000000000000e+00,1.131150275468826294e-01,-4.268070310354232788e-02,8.047776669263839722e-02,-1.632483676075935364e-02,-1.557156294584274292e-01,2.644107639789581299e-01,-5.169685184955596924e-02,-5.791377425193786621e-01,1.010346412658691406e-01,-6.420937180519104004e-02,-2.257970124483108521e-01,2.477935329079627991e-02,-2.031009197235107422e-01,-1.629999093711376190e-02,-3.648869991302490234e-01,-1.519576758146286011e-01,6.593122333288192749e-02,-6.389883160591125488e-02,-7.160267233848571777e-02,7.146390527486801147e-02
-1.680059671401977539e+00,-1.696882486343383789e+00,8.628858327865600586e-01,0.000000000000000000e+00,0.000000000000000000e+00,0.000000000000000000e+00,0.000000000000000000e+00,0.000000000000000000e+00,0.000000000000000000e+00,0.000000000000000000e+00,0.000000000000000000e+00,1.109696030616760254e-01,-4.482613131403923035e-02,7.833234220743179321e-02,-2.197989821434020996e-02,-1.734897792339324951e-01,2.655004858970642090e-01,-4.831688851118087769e-02,-5.962307453155517578e-01,1.000702604651451111e-01,-6.446168571710586548e-02,-2.350607663393020630e-01,3.363766893744468689e-02,-1.986116915941238403e-01,-2.086644247174263000e-02,-3.579550385475158691e-01,-1.525127440690994263e-01,6.768777221441268921e-02,-6.058527901768684387e-02,-7.375817745923995972e-02,7.721862941980361938e-02
-1.662814736366271973e+00,-1.674235343933105469e+00,8.680839538574218750e-01,0.000000000000000000e+00,0.000000000000000000e+00,0.000000000000000000e+00,0.000000000000000000e+00,0.000000000000000000e+00,0.000000000000000000e+00,0.000000000000000000e+00,0.000000000000000000e+00,1.106931343674659729e-01,-4.510259628295898438e-02,7.805587351322174072e-02,-2.585739269852638245e-02,-1.877539455890655518e-01,2.671552300453186035e-01,-4.663280025124549866e-02,-6.102271080017089844e-01,9.834979474544525146e-02,-6.509312242269515991e-02,-2.423201650381088257e-01,4.148856922984123230e-02,-1.933501660823822021e-01,-2.400966919958591461e-02,-3.523610532283782959e-01,-1.524483561515808105e-01,7.019687443971633911e-02,-5.773256719112396240e-02,-7.571140676736831665e-02,8.289668709039688110e-02
-1.644676566123962402e+00,-1.650908589363098145e+00,8.737931847572326660e-01,0.000000000000000000e+00,0.000000000000000000e+00,0.000000000000000000e+00,0.000000000000000000e+00,0.000000000000000000e+00,0.000000000000000000e+00,0.000000000000000000e+00,0.000000000000000000e+00,1.118604391813278198e-01,-4.393529519438743591e-02,7.922317832708358765e-02,-2.894193120300769806e-02,-1.972227692604064941e-01,2.704749703407287598e-01,-4.742476344108581543e-02,-6.203479766845703125e-01,9.520420432090759277e-02,-6.553591787815093994e-02,-2.471084296703338623e-01,4.767611622810363770e-02,-1.878801882266998291e-01,-2.536506205797195435e-02,-3.480682671070098877e-01,-1.514683365821838379e-01,7.299642264842987061e-02,-5.514743924140930176e-02,-7.742127776145935059e-02,8.776985853910446167e-02
-1.625055789947509766e+00,-1.626116633415222168e+00,8.808769583702087402e-01,0.000000000000000000e+00,0.000000000000000000e+00,0.000000000000000000e+00,0.000000000000000000e+00,0.000000000000000000e+00,0.000000000000000000e+00,0.000000000000000000e+00,0.000000000000000000e+00,1.138289049267768860e-01,-4.196682572364807129e-02,8.119164407253265381e-02,-3.079757466912269592e-02,-2.012418657541275024e-01,2.733928263187408447e-01,-4.809435456991195679e-02,-6.253705024719238281e-01,9.250578284263610840e-02,-6.577424705028533936e-02,-2.492270618677139282e-01,5.133143812417984009e-02,-1.822727471590042114e-01,-2.660034038126468658e-02,-3.454633951187133789e-01,-1.504172831773757935e-01,7.572019100189208984e-02,-5.343726649880409241e-02,-7.919157296419143677e-02,9.167960286140441895e-02
-1.603860139846801758e+00,-1.600203275680541992e+00,8.871355056762695312e-01,0.000000000000000000e+00,0.000000000000000000e+00,0.000000000000000000e+00,0.000000000000000000e+00,0.000000000000000000e+00,0.000000000000000000e+00,0.000000000000000000e+00,0.000000000000000000e+00,1.163225322961807251e-01,-3.947320207953453064e-02,8.368527144193649292e-02,-3.312284126877784729e-02,-1.987448036670684814e-01,2.776201665401458740e-01,-5.081986635923385620e-02,-6.252880096435546875e-01,8.834142982959747314e-02,-6.585361808538436890e-02,-2.482676655054092407e-01,5.245213955640792847e-02,-1.768937110900878906e-01,-2.802141755819320679e-02,-3.440468311309814453e-01,-1.492154449224472046e-01,7.818376272916793823e-02,-5.238098651170730591e-02,-8.109465986490249634e-02,9.385258704423904419e-02
-1.582129001617431641e+00,-1.574626922607421875e+00,8.979272842407226562e-01,0.000000000000000000e+00,0.000000000000000000e+00,0.000000000000000000e+00,0.000000000000000000e+00,0.000000000000000000e+00,0.000000000000000000e+00,0.000000000000000000e+00,0.000000000000000000e+00,1.187944337725639343e-01,-3.700130060315132141e-02,8.615717291831970215e-02,-3.111809864640235901e-02,-1.918449103832244873e-01,2.725376188755035400e-01,-4.383230581879615784e-02,-6.199579834938049316e-01,9.686229377985000610e-02,-6.446730345487594604e-02,-2.454019337892532349e-01,5.082303658127784729e-02,-1.720812767744064331e-01,-3.210471570491790771e-02,-3.434694409370422363e-01,-1.502071768045425415e-01,7.894284278154373169e-02,-5.195018649101257324e-02,-8.306097984313964844e-02,9.487432241439819336e-02
-1.561053752899169922e+00,-1.549808740615844727e+00,9.014166593551635742e-01,0.000000000000000000e+00,0.000000000000000000e+00,0.000000000000000000e+00,0.000000000000000000e+00,0.000000000000000000e+00,0.000000000000000000e+00,0.000000000000000000e+00,0.000000000000000000e+00,1.219482123851776123e-01,-3.384751826524734497e-02,8.931095153093338013e-02,-3.401268646121025085e-02,-1.803881525993347168e-01,2.723287642002105713e-01,-4.287826642394065857e-02,-6.098039150238037109e-01,9.014113992452621460e-02,-6.801257282495498657e-02,-2.393972724676132202e-01,4.614516347646713257e-02,-1.667230725288391113e-01,-3.888139128684997559e-02,-3.439259231090545654e-01,-1.474617570638656616e-01,8.008594065904617310e-02,-5.191050097346305847e-02,-8.501598984003067017e-02,9.525974839925765991e-02
-1.541959047317504883e+00,-1.526036977767944336e+00,9.109870791435241699e-01,0.000000000000000000e+00,0.000000000000000000e+00,0.000000000000000000e+00,0.000000000000000000e+00,0.000000000000000000e+00,0.000000000000000000e+00,0.000000000000000000e+00,0.000000000000000000e+00,1.244732812047004700e-01,-3.132244944572448730e-02,9.183602780103683472e-02,-3.070885874330997467e-02,-1.663137227296829224e-01,2.697179019451141357e-01,-3.953715413808822632e-02,-5.963313579559326172e-01,8.700054138898849487e-02,-7.291395217180252075e-02,-2.318199574947357178e-01,3.836796805262565613e-02,-1.626789122819900513e-01,-4.563301801681518555e-02,-3.465597033500671387e-01,-1.459446102380752563e-01,8.032421022653579712e-02,-5.338162556290626526e-02,-8.732132613658905029e-02,9.536191076040267944e-02
-1.523255348205566406e+00,-1.503554940223693848e+00,9.211844205856323242e-01,0.000000000000000000e+00,0.000000000000000000e+00,0.000000000000000000e+00,0.000000000000000000e+00,0.000000000000000000e+00,0.000000000000000000e+00,0.000000000000000000e+00,0.000000000000000000e+00,1.261799782514572144e-01,-2.961575984954833984e-02,9.354270994663238525e-02,-2.524498850107192993e-02,-1.500344276428222656e-01,2.664910554885864258e-01,-3.775982558727264404e-02,-5.818788409233093262e-01,8.409001678228378296e-02,-7.952651381492614746e-02,-2.240872681140899658e-01,2.750457637012004852e-02,-1.601243764162063599e-01,-5.096013098955154419e-02,-3.522212505340576172e-01,-1.442403644323348999e-01,8.021826297044754028e-02,-5.690744891762733459e-02,-8.994602411985397339e-02,9.541732817888259888e-02
-1.505342960357666016e+00,-1.481983423233032227e+00,9.295777678489685059e-01,0.000000000000000000e+00,0.000000000000000000e+00,0.000000000000000000e+00,0.000000000000000000e+00,0.000000000000000000e+00,0.000000000000000000e+00,0.000000000000000000e+00,0.000000000000000000e+00,1.288015693426132202e-01,-2.699416689574718475e-02,9.616430103778839111e-02,-1.878564804792404175e-02,-1.305179297924041748e-01,2.676028907299041748e-01,-3.897863626480102539e-02,-5.658002495765686035e-01,7.721682637929916382e-02,-8.257961273193359375e-02,-2.150668203830718994e-01,1.446226518601179123e-02,-1.584784239530563354e-01,-5.465196445584297180e-02,-3.597003221511840820e-01,-1.421476155519485474e-01,8.024130016565322876e-02,-6.097194552421569824e-02,-9.329551458358764648e-02,9.534385055303573608e-02
-1.487355113029479980e+00,-1.461607098579406738e+00,9.383398890495300293e-01,0.000000000000000000e+00,0.000000000000000000e+00,0.000000000000000000e+00,0.000000000000000000e+00,0.000000000000000000e+00,0.000000000000000000e+00,0.000000000000000000e+00,0.000000000000000000e+00,1.303583979606628418e-01,-2.543734200298786163e-02,9.772112965583801270e-02,-9.990496560931205750e-03,-1.093924343585968018e-01,2.680427134037017822e-01,-3.863427042961120605e-02,-5.482347607612609863e-01,7.165279239416122437e-02,-8.485747873783111572e-02,-2.054506838321685791e-01,-1.758289290592074394e-03,-1.580778807401657104e-01,-5.892417207360267639e-02,-3.694722950458526611e-01,-1.414545476436614990e-01,7.944895327091217041e-02,-6.622589379549026489e-02,-9.697582572698593140e-02,9.569040685892105103e-02
-1.469205498695373535e+00,-1.440309524536132812e+00,9.459946751594543457e-01,0.000000000000000000e+00,0.000000000000000000e+00,0.000000000000000000e+00,0.000000000000000000e+00,0.000000000000000000e+00,0.000000000000000000e+00,0.000000000000000000e+00,0.000000000000000000e+00,1.300632655620574951e-01,-2.573247253894805908e-02,9.742599725723266602e-02,-7.978535140864551067e-04,-8.741995692253112793e-02,2.673033177852630615e-01,-3.671856969594955444e-02,-5.303689241409301758e-01,6.702879816293716431e-02,-8.685285598039627075e-02,-1.961715221405029297e-01,-2.063895575702190399e-02,-1.583503782749176025e-01,-6.401443481445312500e-02,-3.818015456199645996e-01,-1.413581371307373047e-01,7.834493368864059448e-02,-7.319519668817520142e-02,-1.010195240378379822e-01,9.618614614009857178e-02
-1.451031923294067383e+00,-1.418306946754455566e+00,9.523633122444152832e-01,0.000000000000000000e+00,0.000000000000000000e+00,0.000000000000000000e+00,0.000000000000000000e+00,0.000000000000000000e+00,0.000000000000000000e+00,0.000000000000000000e+00,0.000000000000000000e+00,1.297075003385543823e-01,-2.608822472393512726e-02,9.707024693489074707e-02,7.773504126816987991e-03,-6.425525993108749390e-02,2.659887373447418213e-01,-3.456816449761390686e-02,-5.119932889938354492e-01,6.259506195783615112e-02,-8.954347670078277588e-02,-1.868593245744705200e-01,-4.140627011656761169e-02,-1.581726074218750000e-01,-7.088103890419006348e-02,-3.959852457046508789e-01,-1.431034505367279053e-01,7.746120542287826538e-02,-8.111394196748733521e-02,-1.054842546582221985e-01,9.718001633882522583e-02
-1.434660673141479492e+00,-1.397159695625305176e+00,9.584132432937622070e-01,0.000000000000000000e+00,0.000000000000000000e+00,0.000000000000000000e+00,0.000000000000000000e+00,0.000000000000000000e+00,0.000000000000000000e+00,0.000000000000000000e+00,0.000000000000000000e+00,1.292926520109176636e-01,-2.650308050215244293e-02,9.665539115667343140e-02,1.735503226518630981e-02,-4.065349325537681580e-02,2.632464468479156494e-01,-3.009967878460884094e-02,-4.930016398429870605e-01,5.982111766934394836e-02,-9.192726016044616699e-02,-1.769389063119888306e-01,-6.383328139781951904e-02,-1.580384075641632080e-01,-7.770666480064392090e-02,-4.124011695384979248e-01,-1.456769108772277832e-01,7.738178223371505737e-02,-9.033037722110748291e-02,-1.105146557092666626e-01,9.868805855512619019e-02
-1.418419957160949707e+00,-1.375879049301147461e+00,9.634246826171875000e-01,0.000000000000000000e+00,0.000000000000000000e+00,0.000000000000000000e+00,0.000000000000000000e+00,0.000000000000000000e+00,0.000000000000000000e+00,0.000000000000000000e+00,0.000000000000000000e+00,1.287188082933425903e-01,-2.707692049443721771e-02,9.608155488967895508e-02,2.641540765762329102e-02,-1.637851633131504059e-02,2.610300183296203613e-01,-2.611453272402286530e-02,-4.734346270561218262e-01,5.713100358843803406e-02,-9.384770691394805908e-02,-1.680812835693359375e-01,-8.768972754478454590e-02,-1.588216572999954224e-01,-8.520200103521347046e-02,-4.307991266250610352e-01,-1.505890786647796631e-01,7.652699947357177734e-02,-1.012340113520622253e-01,-1.155902370810508728e-01,1.000612527132034302e-01
-1.401848673820495605e+00,-1.353531837463378906e+00,9.704526662826538086e-01,0.000000000000000000e+00,0.000000000000000000e+00,0.000000000000000000e+00,0.000000000000000000e+00,0.000000000000000000e+00,0.000000000000000000e+00,0.000000000000000000e+00,0.000000000000000000e+00,1.282948702573776245e-01,-2.750086598098278046e-02,9.565760940313339233e-02,3.755179420113563538e-02,7.387327495962381363e-03,2.579261064529418945e-01,-2.154661901295185089e-02,-4.540106654167175293e-01,5.412499606609344482e-02,-9.572033584117889404e-02,-1.591205000877380371e-01,-1.103591769933700562e-01,-1.606256216764450073e-01,-8.951238542795181274e-02,-4.493134319782257080e-01,-1.529684811830520630e-01,7.666301727294921875e-02,-1.114040762186050415e-01,-1.208457276225090027e-01,1.014127656817436218e-01
-1.385446906089782715e+00,-1.330874204635620117e+00,9.771615266799926758e-01,0.000000000000000000e+00,0.000000000000000000e+00,0.000000000000000000e+00,0.000000000000000000e+00,0.000000000000000000e+00,0.000000000000000000e+00,0.000000000000000000e+00,0.000000000000000000e+00,1.276070922613143921e-01,-2.818863652646541595e-02,9.496983885765075684e-02,4.804115742444992065e-02,2.936798520386219025e-02,2.534875273704528809e-01,-1.584124565124511719e-02,-4.351766705513000488e-01,5.155105143785476685e-02,-9.809508919715881348e-02,-1.505755633115768433e-01,-1.321426182985305786e-01,-1.646986901760101318e-01,-9.297466278076171875e-02,-4.678584635257720947e-01,-1.541619747877120972e-01,7.587292790412902832e-02,-1.217949688434600830e-01,-1.271047294139862061e-01,1.035624593496322632e-01
-1.369125485420227051e+00,-1.307616829872131348e+00,9.838142395019531250e-01,0.000000000000000000e+00,0.000000000000000000e+00,0.000000000000000000e+00,0.000000000000000000e+00,0.000000000000000000e+00,0.000000000000000000e+00,0.000000000000000000e+00,0.000000000000000000e+00,1.271203458309173584e-01,-2.867537923157215118e-02,9.448309242725372314e-02,5.895866081118583679e-02,4.887462034821510315e-02,2.476384490728378296e-01,-8.158536627888679504e-03,-4.175260663032531738e-01,4.964724183082580566e-02,-1.012051180005073547e-01,-1.425324082374572754e-01,-1.516757160425186157e-01,-1.689418852329254150e-01,-9.554506093263626099e-02,-4.849283993244171143e-01,-1.543552726507186890e-01,7.586568593978881836e-02,-1.308071166276931763e-01,-1.338475048542022705e-01,1.063674464821815491e-01
-1.352363109588623047e+00,-1.283534765243530273e+00,9.886867403984069824e-01,0.000000000000000000e+00,0.000000000000000000e+00,0.000000000000000000e+00,0.000000000000000000e+00,0.000000000000000000e+00,0.000000000000000000e+00,0.000000000000000000e+00,0.000000000000000000e+00,1.266449838876724243e-01,-2.915074862539768219e-02,9.400772303342819214e-02,6.884175539016723633e-02,6.565954536199569702e-02,2.409320175647735596e-01,3.921279858332127333e-04,-4.019283950328826904e-01,4.810170456767082214e-02,-1.047982275485992432e-01,-1.350784897804260254e-01,-1.676231324672698975e-01,-1.745900064706802368e-01,-9.721604734659194946e-02,-4.991132616996765137e-01,-1.527500897645950317e-01,7.566802948713302612e-02,-1.376229226589202881e-01,-1.403411775827407837e-01,1.092778146266937256e-01
-1.335499525070190430e+00,-1.258573055267333984e+00,9.888031482696533203e-01,0.000000000000000000e+00,0.000000000000000000e+00,0.000000000000000000e+00,0.000000000000000000e+00,0.000000000000000000e+00,0.000000000000000000e+00,0.000000000000000000e+00,0.000000000000000000e+00,1.253661215305328369e-01,-3.042960725724697113e-02,9.272886812686920166e-02,7.403465360403060913e-02,7.906981557607650757e-02,2.340406477451324463e-01,8.770502172410488129e-03,-3.895156979560852051e-01,4.655095189809799194e-02,-1.085054948925971985e-01,-1.301406174898147583e-01,-1.811304241418838501e-01,-1.822103410959243774e-01,-1.016700342297554016e-01,-5.111868381500244141e-01,-1.523275822401046753e-01,7.201012969017028809e-02,-1.447829604148864746e-01,-1.467135101556777954e-01,1.126019433140754700e-01
-1.318408966064453125e+00,-1.232378363609313965e+00,9.877320528030395508e-01,0.000000000000000000e+00,0.000000000000000000e+00,0.000000000000000000e+00,0.000000000000000000e+00,0.000000000000000000e+00,0.000000000000000000e+00,0.000000000000000000e+00,0.000000000000000000e+00,1.258980929851531982e-01,-2.989763580262660980e-02,9.326083958148956299e-02,7.831832766532897949e-02,8.988525718450546265e-02,2.277469187974929810e-01,1.631828024983406067e-02,-3.791780173778533936e-01,4.410437867045402527e-02,-1.114025488495826721e-01,-1.258534491062164307e-01,-1.895771026611328125e-01,-1.872692853212356567e-01,-1.042592152953147888e-01,-5.190958976745605469e-01,-1.515633463859558105e-01,7.076026499271392822e-02,-1.487736850976943970e-01,-1.530246585607528687e-01,1.157717630267143250e-01
-1.299884319305419922e+00,-1.204580426216125488e+00,9.857532382011413574e-01,0.000000000000000000e+00,0.000000000000000000e+00,0.000000000000000000e+00,0.000000000000000000e+00,0.000000000000000000e+00,0.000000000000000000e+00,0.000000000000000000e+00,0.000000000000000000e+00,1.263773590326309204e-01,-2.941836789250373840e-02,9.374010562896728516e-02,8.104172348976135254e-02,9.699035435914993286e-02,2.222957611083984375e-01,2.211333066225051880e-02,-3.721204102039337158e-01,4.218520596623420715e-02,-1.138942018151283264e-01,-1.233035996556282043e-01,-1.928471624851226807e-01,-1.939667314291000366e-01,-1.052647829055786133e-01,-5.231844186782836914e-01,-1.496002376079559326e-01,6.832576543092727661e-02,-1.508934199810028076e-01,-1.587259471416473389e-01,1.185847148299217224e-01
-1.282517075538635254e+00,-1.175628662109375000e+00,9.827283620834350586e-01,0.000000000000000000e+00,0.000000000000000000e+00,0.000000000000000000e+00,0.000000000000000000e+00,0.000000000000000000e+00,0.000000000000000000e+00,0.000000000000000000e+00,0.000000000000000000e+00,1.271525025367736816e-01,-2.864322438836097717e-02,9.451524913311004639e-02,8.167470246553421021e-02,9.942726045846939087e-02,2.173124402761459351e-01,2.634038776159286499e-02,-3.689304292201995850e-01,3.933948278427124023e-02,-1.165099665522575378e-01,-1.225293353199958801e-01,-1.907591521739959717e-01,-1.979284584522247314e-01,-1.051671504974365234e-01,-5.223721861839294434e-01,-1.479291170835494995e-01,6.729001551866531372e-02,-1.499645262956619263e-01,-1.638158708810806274e-01,1.213052794337272644e-01
-1.266368150711059570e+00,-1.146514892578125000e+00,9.820918440818786621e-01,0.000000000000000000e+00,0.000000000000000000e+00,0.000000000000000000e+00,0.000000000000000000e+00,0.000000000000000000e+00,0.000000000000000000e+00,0.000000000000000000e+00,0.000000000000000000e+00,1.284159421920776367e-01,-2.737978845834732056e-02,9.577868133783340454e-02,8.211165666580200195e-02,9.728928655385971069e-02,2.132600843906402588e-01,2.893485873937606812e-02,-3.686453104019165039e-01,3.507783263921737671e-02,-1.192400455474853516e-01,-1.228712573647499084e-01,-1.833782643079757690e-01,-2.015024572610855103e-01,-1.017523258924484253e-01,-5.173229575157165527e-01,-1.435126513242721558e-01,6.727062910795211792e-02,-1.461877971887588501e-01,-1.685882508754730225e-01,1.239548102021217346e-01
-1.251088619232177734e+00,-1.119038581848144531e+00,9.792183637619018555e-01,0.000000000000000000e+00,0.000000000000000000e+00,0.000000000000000000e+00,0.000000000000000000e+00,0.000000000000000000e+00,0.000000000000000000e+00,0.000000000000000000e+00,0.000000000000000000e+00,1.292835325002670288e-01,-2.651220001280307770e-02,9.664627164602279663e-02,7.900708168745040894e-02,9.093147516250610352e-02,2.121323645114898682e-01,2.851351723074913025e-02,-3.714797794818878174e-01,2.947508729994297028e-02,-1.206337511539459229e-01,-1.240823939442634583e-01,-1.729757636785507202e-01,-2.040348052978515625e-01,-9.678923338651657104e-02,-5.095149874687194824e-01,-1.384822875261306763e-01,6.782945990562438965e-02,-1.403960287570953369e-01,-1.726270020008087158e-01,1.268236786127090454e-01
-1.235871434211730957e+00,-1.093769311904907227e+00,9.751383066177368164e-01,0.000000000000000000e+00,0.000000000000000000e+00,0.000000000000000000e+00,0.000000000000000000e+00,0.000000000000000000e+00,0.000000000000000000e+00,0.000000000000000000e+00,0.000000000000000000e+00,1.289397478103637695e-01,-2.685598656535148621e-02,9.630248695611953735e-02,7.445984333753585815e-02,7.964680343866348267e-02,2.130037844181060791e-01,2.710176445543766022e-02,-3.779383301734924316e-01,2.393077127635478973e-02,-1.209934651851654053e-01,-1.268155276775360107e-01,-1.603153795003890991e-01,-2.045960277318954468e-01,-9.060745686292648315e-02,-4.996759295463562012e-01,-1.328142583370208740e-01,6.980772316455841064e-02,-1.329576671123504639e-01,-1.758146435022354126e-01,1.300197988748550415e-01
-1.220948934555053711e+00,-1.068589687347412109e+00,9.724938273429870605e-01,0.000000000000000000e+00,0.000000000000000000e+00,0.000000000000000000e+00,0.000000000000000000e+00,0.000000000000000000e+00,0.000000000000000000e+00,0.000000000000000000e+00,0.000000000000000000e+00,1.269506961107254028e-01,-2.884503640234470367e-02,9.431343525648117065e-02,6.958816945552825928e-02,6.345155835151672363e-02,2.145999521017074585e-01,2.688458003103733063e-02,-3.878187537193298340e-01,1.943160220980644226e-02,-1.212590336799621582e-01,-1.313268840312957764e-01,-1.456946730613708496e-01,-2.040157318115234375e-01,-8.418662101030349731e-02,-4.880231320858001709e-01,-1.264559179544448853e-01,7.220251113176345825e-02,-1.245450526475906372e-01,-1.787545382976531982e-01,1.341121345758438110e-01
-1.206771492958068848e+00,-1.043545246124267578e+00,9.686748385429382324e-01,0.000000000000000000e+00,0.000000000000000000e+00,0.000000000000000000e+00,0.000000000000000000e+00,0.000000000000000000e+00,0.000000000000000000e+00,0.000000000000000000e+00,0.000000000000000000e+00,1.236252263188362122e-01,-3.217050060629844666e-02,9.098797291517257690e-02,6.187826022505760193e-02,4.319470003247261047e-02,2.178785055875778198e-01,2.601340971887111664e-02,-4.013703465461730957e-01,1.371528487652540207e-02,-1.203289553523063660e-01,-1.375343650579452515e-01,-1.299733966588973999e-01,-2.019741982221603394e-01,-7.982470840215682983e-02,-4.750400483608245850e-01,-1.205414608120918274e-01,7.434450089931488037e-02,-1.156399995088577271e-01,-1.803424209356307983e-01,1.391192823648452759e-01
-1.192860841751098633e+00,-1.018614649772644043e+00,9.637987017631530762e-01,0.000000000000000000e+00,0.000000000000000000e+00,0.000000000000000000e+00,0.000000000000000000e+00,0.000000000000000000e+00,0.000000000000000000e+00,0.000000000000000000e+00,0.000000000000000000e+00,1.190254390239715576e-01,-3.677029162645339966e-02,8.638817816972732544e-02,5.174306407570838928e-02,1.912937313318252563e-02,2.215451896190643311e-01,2.550923638045787811e-02,-4.188664555549621582e-01,8.694870397448539734e-03,-1.192048713564872742e-01,-1.460064351558685303e-01,-1.138743236660957336e-01,-1.989814639091491699e-01,-7.891939580440521240e-02,-4.612963795661926270e-01,-1.168975085020065308e-01,7.468859106302261353e-02,-1.072806045413017273e-01,-1.807396113872528076e-01,1.452710032463073730e-01
-1.169017195701599121e+00,-9.778053164482116699e-01,9.825628399848937988e-01,0.000000000000000000e+00,0.000000000000000000e+00,0.000000000000000000e+00,0.000000000000000000e+00,0.000000000000000000e+00,0.000000000000000000e+00,0.000000000000000000e+00,0.000000000000000000e+00,1.125781312584877014e-01,-4.321759939193725586e-02,7.994087040424346924e-02,1.852851361036300659e-02,-8.856274932622909546e-02,2.302876412868499756e-01,3.619475662708282471e-02,-4.974298477172851562e-01,-1.523063238710165024e-02,-1.187701672315597534e-01,-1.859749555587768555e-01,-4.594261199235916138e-02,-1.805233806371688843e-01,-7.721681147813796997e-02,-4.034667611122131348e-01,-8.626891672611236572e-02,8.881961554288864136e-02,-6.905070692300796509e-02,-1.755737662315368652e-01,1.946194916963577271e-01
-1.160357832908630371e+00,-9.634661078453063965e-01,9.837602376937866211e-01,0.000000000000000000e+00,0.000000000000000000e+00,0.000000000000000000e+00,0.000000000000000000e+00,0.000000000000000000e+00,0.000000000000000000e+00,0.000000000000000000e+00,0.000000000000000000e+00,1.090541779994964600e-01,-4.674155637621879578e-02,7.641691714525222778e-02,1.273895893245935440e-02,-1.020704582333564758e-01,2.300865948200225830e-01,3.793146833777427673e-02,-5.089184045791625977e-01,-1.702244579792022705e-02,-1.196999326348304749e-01,-1.918666660785675049e-01,-3.993402794003486633e-02,-1.784840524196624756e-01,-7.914912700653076172e-02,-3.984413146972656250e-01,-8.351998776197433472e-02,9.001990407705307007e-02,-6.576561927795410156e-02,-1.747839599847793579e-01,2.002522200345993042e-01
-1.148213982582092285e+00,-9.437950253486633301e-01,9.831581711769104004e-01,0.000000000000000000e+00,0.000000000000000000e+00,0.000000000000000000e+00,0.000000000000000000e+00,0.000000000000000000e+00,0.000000000000000000e+00,0.000000000000000000e+00,0.000000000000000000e+00,1.046398282051086426e-01,-5.115589872002601624e-02,7.200257480144500732e-02,4.829919897019863129e-03,-1.204137206077575684e-01,2.307017296552658081e-01,3.901051357388496399e-02,-5.261260271072387695e-01,-1.903873309493064880e-02,-1.204551160335540771e-01,-2.008267790079116821e-01,-3.119129687547683716e-02,-1.751511096954345703e-01,-8.195375651121139526e-02,-3.912334442138671875e-01,-8.091554045677185059e-02,9.162529557943344116e-02,-6.152540072798728943e-02,-1.732273250818252563e-01,2.063670754432678223e-01
-1.134498715400695801e+00,-9.221864938735961914e-01,9.834812879562377930e-01,0.000000000000000000e+00,0.000000000000000000e+00,0.000000000000000000e+00,0.000000000000000000e+00,0.000000000000000000e+00,0.000000000000000000e+00,0.000000000000000000e+00,0.000000000000000000e+00,1.003765091300010681e-01,-5.541922152042388916e-02,6.773924827575683594e-02,-2.940106205642223358e-03,-1.419348865747451782e-01,2.312291562557220459e-01,4.033353552222251892e-02,-5.472216606140136719e-01,-2.063426189124584198e-02,-1.213491708040237427e-01,-2.121141105890274048e-01,-2.057343348860740662e-02,-1.715474426746368408e-01,-8.518970757722854614e-02,-3.827351331710815430e-01,-7.819316536188125610e-02,9.285163879394531250e-02,-5.704963579773902893e-02,-1.712407320737838745e-01,2.131412476301193237e-01
-1.119900465011596680e+00,-8.996200561523437500e-01,9.836955070495605469e-01,0.000000000000000000e+00,0.000000000000000000e+00,0.000000000000000000e+00,0.000000000000000000e+00,0.000000000000000000e+00,0.000000000000000000e+00,0.000000000000000000e+00,0.000000000000000000e+00,9.699422866106033325e-02,-5.880150198936462402e-02,6.435696780681610107e-02,-1.069280877709388733e-02,-1.643600463867187500e-01,2.325455546379089355e-01,4.103738814592361450e-02,-5.703290104866027832e-01,-2.247310802340507507e-02,-1.222089231014251709e-01,-2.245682924985885620e-01,-8.824103511869907379e-03,-1.675497144460678101e-01,-8.851291239261627197e-02,-3.732406497001647949e-01,-7.518130540847778320e-02,9.424988925457000732e-02,-5.211239308118820190e-02,-1.689340472221374512e-01,2.204892784357070923e-01
-1.105184197425842285e+00,-8.765453100204467773e-01,9.856933355331420898e-01,0.000000000000000000e+00,0.000000000000000000e+00,0.000000000000000000e+00,0.000000000000000000e+00,0.000000000000000000e+00,0.000000000000000000e+00,0.000000000000000000e+00,0.000000000000000000e+00,9.453202784061431885e-02,-6.126370280981063843e-02,6.189476698637008667e-02,-1.716160774230957031e-02,-1.868331283330917358e-01,2.344806492328643799e-01,4.221035540103912354e-02,-5.942999124526977539e-01,-2.405069582164287567e-02,-1.220125854015350342e-01,-2.374718636274337769e-01,3.221224062144756317e-03,-1.629539728164672852e-01,-9.217539429664611816e-02,-3.634642362594604492e-01,-7.178764045238494873e-02,9.573202580213546753e-02,-4.696495831012725830e-02,-1.665542423725128174e-01,2.280478775501251221e-01
-1.090127944946289062e+00,-8.526981472969055176e-01,9.883469939231872559e-01,0.000000000000000000e+00,0.000000000000000000e+00,0.000000000000000000e+00,0.000000000000000000e+00,0.000000000000000000e+00,0.000000000000000000e+00,0.000000000000000000e+00,0.000000000000000000e+00,9.283746778964996338e-02,-6.295826286077499390e-02,6.020020693540573120e-02,-2.323240227997303009e-02,-2.073547989130020142e-01,2.362846732139587402e-01,4.248412325978279114e-02,-6.170654892921447754e-01,-2.643577754497528076e-02,-1.226127445697784424e-01,-2.498102933168411255e-01,1.446456927806138992e-02,-1.577186435461044312e-01,-9.618514776229858398e-02,-3.544230163097381592e-01,-6.870597600936889648e-02,9.775470942258834839e-02,-4.228786751627922058e-02,-1.643842011690139771e-01,2.355765402317047119e-01
-1.074271917343139648e+00,-8.282979726791381836e-01,9.928004741668701172e-01,0.000000000000000000e+00,0.000000000000000000e+00,0.000000000000000000e+00,0.000000000000000000e+00,0.000000000000000000e+00,0.000000000000000000e+00,0.000000000000000000e+00,0.000000000000000000e+00,9.245648980140686035e-02,-6.333924084901809692e-02,5.981923267245292664e-02,-2.765577286481857300e-02,-2.246681749820709229e-01,2.371958792209625244e-01,4.239181801676750183e-02,-6.371366381645202637e-01,-2.799993753433227539e-02,-1.241774410009384155e-01,-2.608203887939453125e-01,2.464766800403594971e-02,-1.519445329904556274e-01,-9.989194571971893311e-02,-3.461940884590148926e-01,-6.574228405952453613e-02,1.002806797623634338e-01,-3.797147795557975769e-02,-1.618731915950775146e-01,2.425952553749084473e-01
-1.057753443717956543e+00,-8.033171296119689941e-01,9.984847307205200195e-01,0.000000000000000000e+00,0.000000000000000000e+00,0.000000000000000000e+00,0.000000000000000000e+00,0.000000000000000000e+00,0.000000000000000000e+00,0.000000000000000000e+00,0.000000000000000000e+00,9.378215670585632324e-02,-6.201357394456863403e-02,6.114489585161209106e-02,-3.074270673096179962e-02,-2.372191846370697021e-01,2.398715019226074219e-01,4.094057902693748474e-02,-6.530275940895080566e-01,-3.160222619771957397e-02,-1.254013478755950928e-01,-2.691340744495391846e-01,3.239979967474937439e-02,-1.459524482488632202e-01,-1.030773222446441650e-01,-3.398292362689971924e-01,-6.259956955909729004e-02,1.033646613359451294e-01,-3.462509065866470337e-02,-1.591206938028335571e-01,2.494610995054244995e-01
-1.040392160415649414e+00,-7.774617671966552734e-01,1.004519462585449219e+00,0.000000000000000000e+00,0.000000000000000000e+00,0.000000000000000000e+00,0.000000000000000000e+00,0.000000000000000000e+00,0.000000000000000000e+00,0.000000000000000000e+00,0.000000000000000000e+00,9.623634070158004761e-02,-5.955939367413520813e-02,6.359907984733581543e-02,-3.311055898666381836e-02,-2.436562478542327881e-01,2.436717301607131958e-01,3.903355076909065247e-02,-6.632575988769531250e-01,-3.634130954742431641e-02,-1.257659941911697388e-01,-2.742624580860137939e-01,3.705566376447677612e-02,-1.396722495555877686e-01,-1.062427833676338196e-01,-3.354036211967468262e-01,-5.948124825954437256e-02,1.072194650769233704e-01,-3.218016400933265686e-02,-1.562809944152832031e-01,2.553723752498626709e-01
-1.022184491157531738e+00,-7.501927614212036133e-01,1.009802818298339844e+00,0.000000000000000000e+00,0.000000000000000000e+00,0.000000000000000000e+00,0.000000000000000000e+00,0.000000000000000000e+00,0.000000000000000000e+00,0.000000000000000000e+00,0.000000000000000000e+00,9.974415600299835205e-02,-5.605157464742660522e-02,6.710689514875411987e-02,-3.650001809000968933e-02,-2.425879985094070435e-01,2.470169961452484131e-01,3.677050396800041199e-02,-6.665446162223815918e-01,-4.163547977805137634e-02,-1.273523569107055664e-01,-2.753320336341857910e-01,3.801971673965454102e-02,-1.336039900779724121e-01,-1.108687072992324829e-01,-3.330398797988891602e-01,-5.756315588951110840e-02,1.111474707722663879e-01,-3.117360919713973999e-02,-1.540182232856750488e-01,2.600054442882537842e-01
-1.002721548080444336e+00,-7.218642234802246094e-01,1.015883564949035645e+00,0.000000000000000000e+00,0.000000000000000000e+00,0.000000000000000000e+00,0.000000000000000000e+00,0.000000000000000000e+00,0.000000000000000000e+00,0.000000000000000000e+00,0.000000000000000000e+00,1.035589426755905151e-01,-5.223678424954414368e-02,7.092168927192687988e-02,-3.865966200828552246e-02,-2.345868945121765137e-01,2.495353370904922485e-01,3.619504347443580627e-02,-6.622973680496215820e-01,-4.635697230696678162e-02,-1.290122866630554199e-01,-2.725979089736938477e-01,3.539266437292098999e-02,-1.281668990850448608e-01,-1.170424520969390869e-01,-3.328112661838531494e-01,-5.671516805887222290e-02,1.146636828780174255e-01,-3.118135035037994385e-02,-1.524742841720581055e-01,2.637171447277069092e-01
-9.826279878616333008e-01,-6.941750049591064453e-01,1.022621989250183105e+00,0.000000000000000000e+00,0.000000000000000000e+00,0.000000000000000000e+00,0.000000000000000000e+00,0.000000000000000000e+00,0.000000000000000000e+00,0.000000000000000000e+00,0.000000000000000000e+00,1.082368195056915283e-01,-4.755891487002372742e-02,7.559955865144729614e-02,-3.926208615303039551e-02,-2.198018878698348999e-01,2.521975338459014893e-01,3.605404123663902283e-02,-6.503993868827819824e-01,-5.126890912652015686e-02,-1.304838359355926514e-01,-2.653748095035552979e-01,2.891524136066436768e-02,-1.241256520152091980e-01,-1.237634196877479553e-01,-3.350947499275207520e-01,-5.677141621708869934e-02,1.173385903239250183e-01,-3.275841474533081055e-02,-1.513065546751022339e-01,2.668466269969940186e-01
-9.633933305740356445e-01,-6.674789190292358398e-01,1.031631231307983398e+00,0.000000000000000000e+00,0.000000000000000000e+00,0.000000000000000000e+00,0.000000000000000000e+00,0.000000000000000000e+00,0.000000000000000000e+00,0.000000000000000000e+00,0.000000000000000000e+00,1.128502562642097473e-01,-4.294547438621520996e-02,8.021299540996551514e-02,-3.703317046165466309e-02,-2.006476968526840210e-01,2.532324790954589844e-01,3.803497925400733948e-02,-6.321641802787780762e-01,-5.349688977003097534e-02,-1.322199851274490356e-01,-2.549992799758911133e-01,1.924381405115127563e-02,-1.209500953555107117e-01,-1.307106316089630127e-01,-3.393324315547943115e-01,-5.799777060747146606e-02,1.197678372263908386e-01,-3.537155687808990479e-02,-1.513069272041320801e-01,2.694771587848663330e-01
-9.457485675811767578e-01,-6.419109106063842773e-01,1.043443918228149414e+00,0.000000000000000000e+00,0.000000000000000000e+00,0.000000000000000000e+00,0.000000000000000000e+00,0.000000000000000000e+00,0.000000000000000000e+00,0.000000000000000000e+00,0.000000000000000000e+00,1.175691857933998108e-01,-3.822654858231544495e-02,8.493192493915557861e-02,-3.191519156098365784e-02,-1.776902377605438232e-01,2.554272413253784180e-01,3.900554776191711426e-02,-6.096662282943725586e-01,-5.648349225521087646e-02,-1.330296993255615234e-01,-2.419766038656234741e-01,7.003435865044593811e-03,-1.206466704607009888e-01,-1.356824785470962524e-01,-3.458059132099151611e-01,-5.876035243272781372e-02,1.200402900576591492e-01,-3.883687034249305725e-02,-1.526154875755310059e-01,2.713583409786224365e-01
-9.279752373695373535e-01,-6.165490150451660156e-01,1.053789377212524414e+00,0.000000000000000000e+00,0.000000000000000000e+00,0.000000000000000000e+00,0.000000000000000000e+00,0.000000000000000000e+00,0.000000000000000000e+00,0.000000000000000000e+00,0.000000000000000000e+00,1.211136281490325928e-01,-3.468210250139236450e-02,8.847636729478836060e-02,-2.710301242768764496e-02,-1.521883457899093628e-01,2.570540010929107666e-01,3.866897895932197571e-02,-5.845018625259399414e-01,-5.989951640367507935e-02,-1.348015516996383667e-01,-2.272115051746368408e-01,-7.507936097681522369e-03,-1.217847466468811035e-01,-1.402368396520614624e-01,-3.544397354125976562e-01,-6.016528606414794922e-02,1.197166293859481812e-01,-4.356525093317031860e-02,-1.551007926464080811e-01,2.725717425346374512e-01
-9.106351733207702637e-01,-5.921926498413085938e-01,1.062442660331726074e+00,0.000000000000000000e+00,0.000000000000000000e+00,0.000000000000000000e+00,0.000000000000000000e+00,0.000000000000000000e+00,0.000000000000000000e+00,0.000000000000000000e+00,0.000000000000000000e+00,1.237515062093734741e-01,-3.204422816634178162e-02,9.111424535512924194e-02,-2.180702984333038330e-02,-1.248778849840164185e-01,2.588199973106384277e-01,3.715748712420463562e-02,-5.577761530876159668e-01,-6.373489648103713989e-02,-1.368221342563629150e-01,-2.115626037120819092e-01,-2.396072074770927429e-02,-1.239328533411026001e-01,-1.437571942806243896e-01,-3.650480806827545166e-01,-6.166560202836990356e-02,1.193104684352874756e-01,-4.925595968961715698e-02,-1.585269123315811157e-01,2.735233604907989502e-01
-8.935673832893371582e-01,-5.686228275299072266e-01,1.068957448005676270e+00,0.000000000000000000e+00,0.000000000000000000e+00,0.000000000000000000e+00,0.000000000000000000e+00,0.000000000000000000e+00,0.000000000000000000e+00,0.000000000000000000e+00,0.000000000000000000e+00,1.256258338689804077e-01,-3.016989678144454956e-02,9.298857301473617554e-02,-1.591713912785053253e-02,-9.652604162693023682e-02,2.606516480445861816e-01,3.590260818600654602e-02,-5.302289128303527832e-01,-6.817058473825454712e-02,-1.387486755847930908e-01,-1.951147466897964478e-01,-4.193134978413581848e-02,-1.268328875303268433e-01,-1.472725123167037964e-01,-3.770314157009124756e-01,-6.376078724861145020e-02,1.188157051801681519e-01,-5.559985712170600891e-02,-1.626592129468917847e-01,2.745561301708221436e-01
-8.766435384750366211e-01,-5.449696779251098633e-01,1.074306011199951172e+00,0.000000000000000000e+00,0.000000000000000000e+00,0.000000000000000000e+00,0.000000000000000000e+00,0.000000000000000000e+00,0.000000000000000000e+00,0.000000000000000000e+00,0.000000000000000000e+00,1.256175190210342407e-01,-3.017821162939071655e-02,9.298025816679000854e-02,-9.217700920999050140e-03,-6.949888169765472412e-02,2.606938183307647705e-01,3.713103011250495911e-02,-5.046976208686828613e-01,-6.973963975906372070e-02,-1.401015073060989380e-01,-1.815846413373947144e-01,-6.116142496466636658e-02,-1.310440301895141602e-01,-1.505996137857437134e-01,-3.903644680976867676e-01,-6.622838973999023438e-02,1.177813485264778137e-01,-6.293363124132156372e-02,-1.675614863634109497e-01,2.759053707122802734e-01
-8.602566719055175781e-01,-5.217615962028503418e-01,1.076354146003723145e+00,0.000000000000000000e+00,0.000000000000000000e+00,0.000000000000000000e+00,0.000000000000000000e+00,0.000000000000000000e+00,0.000000000000000000e+00,0.000000000000000000e+00,0.000000000000000000e+00,1.251769661903381348e-01,-3.061875887215137482e-02,9.253971278667449951e-02,-3.337817033752799034e-03,-4.224571585655212402e-02,2.597293257713317871e-01,4.030083864927291870e-02,-4.793051183223724365e-01,-7.016059756278991699e-02,-1.412958204746246338e-01,-1.685128808021545410e-01,-8.143669366836547852e-02,-1.354523897171020508e-01,-1.552145779132843018e-01,-4.046283662319183350e-01,-6.987749040126800537e-02,1.166171282529830933e-01,-7.082896679639816284e-02,-1.729470789432525635e-01,2.773278951644897461e-01
-8.446047902107238770e-01,-4.986558556556701660e-01,1.075200557708740234e+00,0.000000000000000000e+00,0.000000000000000000e+00,0.000000000000000000e+00,0.000000000000000000e+00,0.000000000000000000e+00,0.000000000000000000e+00,0.000000000000000000e+00,0.000000000000000000e+00,1.244777441024780273e-01,-3.131799027323722839e-02,9.184048324823379517e-02,1.000628108158707619e-03,-1.493285968899726868e-02,2.580069005489349365e-01,4.546650871634483337e-02,-4.543050229549407959e-01,-7.003036141395568848e-02,-1.420180499553680420e-01,-1.561052799224853516e-01,-1.025381386280059814e-01,-1.392345577478408813e-01,-1.622793674468994141e-01,-4.198757112026214600e-01,-7.522918283939361572e-02,1.153068989515304565e-01,-8.012019097805023193e-02,-1.787527799606323242e-01,2.785288691520690918e-01
